!!!!SEGMENT: pl-wn--mus-iii-601--004-003_janiewicz-feliks--ive-trio-polonese-allegretto.krn
!!!cenid: 17xx:2398
!!!COM: Janiewicz, Feliks
!!!COM-rismID: pe30011012
!!!CDT: 1762-1848
!!!CNT: Polish
!!!OPR: Ive Trio
!!!OTL: Polonese/Allegretto
!!!OMV: 003
!!!PDT:
!!!AGN:
!!!YEC: Copyright 2022 Narodowy Instytut Fryderyka Chopina (https://polishscores.org)
!!!YEM: License CC-BY-4.0 (https://creativecommons.org/licenses/by/4.0)
!!!SMS-siglum: PL-Wn
!!!SMS-shelfmark: Mus.III.601
!!!SMS-shelfwork: 004-003 M
!!!SMS-variant:
!!!SMS-altvar:
!!!NIFC-rismSourceID: 990069598
!!!NIFC-rismChildID: 990069598
!!!NIFC-islandoraID: none
!!!URL-pdf-islandora:
!!!URL-scan: https://polona2.pl/item/six-trios-pour-deux-violons-basse,MTAxMDA3MzY2/0/#item @EN{Scan on Polona} @PL{Skany w portalu Polona}
!!!IIIF: https://polona2.pl/iiif/item/MTAxMDA3MzY2/manifest.json
!!!ONB-nifc: UWAGA: źródło zawiera 6 Trio na 2 skrzypiec i wiolonczelę. Violino Primo (od skanu 3), Violino Secondo (od skanu 37), Basso (od skanu 61). Basso to partia wiolonczeli. Części Ie Trio: 1. Allegro moderato, 2. Adagio, 3. Polonese/Allegretto
!!!AIN: 1 cello 2 violn
!!!key: B-
!!!OMD:
!!!OMD-mod: Allegretto
**kern	**dynam	**kern	**dynam	**kern	**fing	**dynam
*part3	*	*part2	*	*part1	*	*
*staff3	*	*staff2	*	*staff1	*	*
*I"BASSO	*	*I"VIOLINO SECONDO	*	*I"VIOLINO PRIMO	*	*
*mI"Violoncello	*	*mI"Violino II	*	*mI"Violino I	*	*
*I'vlc	*	*I'vl 2	*	*I'vl 1	*	*
*ICstr	*	*ICstr	*	*ICstr	*	*
*Icello	*	*Ivioln	*	*Ivioln	*	*
*clefF4	*	*clefG2	*	*clefG2	*	*
*k[b-e-]	*	*k[b-e-]	*	*k[b-e-]	*	*
*B-:	*	*B-:	*	*B-:	*	*B-:
*M3/4	*	*M3/4	*	*M3/4	*	*
=1	=1	=1	=1	=1	=1	=1
*xywh-#71:480,611,3345,417	*	*xywh-#52:589,489,3548,591	*	*xywh-#24:494,509,3453,476	*	*
!LO:TX:a:B:t=Polonese\nAllegretto:mod=	!	!LO:TX:a:B:t=Polonese\nAllegretto.:mod=	!	!LO:TX:a:B:t=Polonese\nAllegretto:mod=	!	!
4BB-'/	p	8d'/L	p	4.b-\	.	p
.	.	8f'/	.	.	.	.
4B-'\	.	8d'/	.	.	.	.
.	.	8f'/	.	(16een\LL	.	.
.	.	.	.	16ff\JJ)	.	.
4r	.	8d'/	.	(16ee\LL	.	.
.	.	.	.	16ff\	.	.
.	.	8B-'/J	.	16gg\	.	.
.	.	.	.	16ff\JJ)	.	.
=2	=2	=2	=2	=2	=2	=2
4FF'/	.	8A/L	.	8ff\L	.	.
.	.	8c/	.	8ee-X\J	.	.
4F'\	.	8A/	.	2cc\	.	.
.	.	8f/	.	.	.	.
4r	.	8e-/	.	.	.	.
.	.	8f/J	.	.	.	.
=3	=3	=3	=3	=3	=3	=3
8BB-/	.	8d/L	.	(16dd\LL	.	.
.	.	.	.	16b-\J)	.	.
8r	.	8B-/	.	8ff'\J	.	.
8B-\	.	8d/	.	(16bb-\LL	.	.
.	.	.	.	16ff\J)	.	.
8r	.	8f/	.	8dd'\J	.	.
8BB-/	.	8d/	.	(16b-\LL	.	.
.	.	.	.	16dd\J)	.	.
8r	.	8B-/J	.	8ff'\J	.	.
=4	=4	=4	=4	=4	=4	=4
!	!	!LO:SIC:s=8A'/L:v	!	!	!	!
4FF/	.	8A/L	.	8cc'\L	.	.
!	!	!LO:SIC:s=(16A/L:v	!	!	!	!
.	.	16A/L	.	(16cc\L	.	.
!	!	!LO:SIC:s=16B-/JJ):v	!	!	!	!
.	.	16B-/JJ	.	16dd\JJ)	.	.
!	!	!LO:SIC:s=(16c/LL:v	!	!	!	!
4r	.	16c/LL	.	(16cc/LL	.	.
!	!	!LO:SIC:s=16d/):v	!	!	!	!
.	.	16d/	.	16b-/)	.	.
!	!	!LO:SIC:s=16c'/:v	!	!	!	!
.	.	16c/	.	16a'/	.	.
!	!	!LO:SIC:s=16B-'/JJ:v	!	!	!	!
.	.	16B-/JJ	.	16g'/JJ	.	.
!	!	!LO:SIC:s=4A'/:v	!	!	!	!
16F\LL	.	4A/	.	4f'/	.	.
16E-\	.	.	.	.	.	.
16D\	.	.	.	.	.	.
16C\JJ	.	.	.	.	.	.
=5	=5	=5	=5	=5	=5	=5
4BB-/	.	8d/L	.	4.b-\	.	.
.	.	8f/	.	.	.	.
4B-\	.	8d/	.	.	.	.
.	.	8f/	.	(16gg\LL	.	.
.	.	.	.	16ff\JJ)	.	.
4B-\	.	8d/	.	(16een\LL	.	.
.	.	.	.	16ff\	.	.
.	.	8f/J	.	16gg\	.	.
.	.	.	.	16ff\JJ)	.	.
!	!	!LO:LB:g=original	!	!	!	!
=6	=6	=6	=6	=6	=6	=6
*	*	*xywh-#52:569,1040,3554,378	*	*	*	*
2A\	.	8c/L	.	8ff\L	.	.
.	.	8f/	.	8ee-X\J	.	.
.	.	8a/	.	2cc\	.	.
.	.	8f/	.	.	.	.
4F\	.	8e-/	.	.	.	.
.	.	8a/J	.	.	.	.
!	!	!	!	!LO:LB:g=original	!	!
=7	=7	=7	=7	=7	=7	=7
*	*	*	*	*xywh-#24:527,920,3402,369	*	*
4BB-/	.	8b-/L	.	(16dd\LL	.	.
.	.	.	.	16ee-\	.	.
.	.	8d/J	.	16ff\	.	.
.	.	.	.	16gg\JJ)	.	.
4D/	.	8B-/L	.	(16ff\LL	.	.
.	.	.	.	16gg\	.	.
.	.	8f/	.	16aa\	.	.
.	.	.	.	16bb-\JJ)	.	.
8E-/L	.	8g/	.	(16cc\LL	.	.
.	.	.	.	16dd\	.	.
8C/J	.	8e-/J	.	16ee-\	.	.
.	.	.	.	16ff\JJ)	.	.
=8	=8	=8	=8	=8	=8	=8
8F\L	.	8c/L	.	(16ee-\LL	.	.
.	.	.	.	16dd\	.	.
8FF/J	.	8e-/J	.	16ee-\	.	.
.	.	.	.	16cc\JJ)	.	.
8r	.	(4e-/	.	(4cc\	.	.
8FF/	.	.	.	.	.	.
4BB-/	.	4d/)	.	4b-\)	.	.
=9	=9	=9	=9	=9	=9	=9
!	!	!	!LO:DY:b:t=F	!	!	!LO:DY:b:t=F
!	!LO:DY:t= :mod=%s	!	!	!	!	!
!	!LO:MO:mod=!LO&colon;DY&colon;ed=brack	!	!	!	!	!
!	!null	!	!	!	!	!
8BB-/L	f	(16d/LL	f	4.b-\	.	f
.	.	16f/)	.	.	.	.
8B-\J	.	(16d/	.	.	.	.
.	.	16f/JJ)	.	.	.	.
*tremolo	*	*	*	*	*	*
8B-\L	.	(16d/LL	.	.	.	.
.	.	16f/)	.	.	.	.
8B-\	.	(16d/	.	16een\LL	.	.
.	.	16f/JJ)	.	16ff\JJ	.	.
8B-\	.	(16d/LL	.	(16ee\LL	.	.
.	.	16f/)	.	16ff\	.	.
!	!	!	!	!LO:SIC:s=16gg\:v	!	!
8B-\J	.	(16d/	.	16gg\)	.	.
!	!	!	!	!LO:SIC:s=16ff\JJ):v	!	!
.	.	16f/JJ)	.	16ff'\JJ	.	.
*Xtremolo	*	*	*	*	*	*
=10	=10	=10	=10	=10	=10	=10
8c\L	.	16e-/LL	.	(8ff\L	.	.
.	.	16f/	.	.	.	.
8c\	.	16a/	.	8ee-X\J)	.	.
.	.	16f/JJ	.	.	.	.
8A\	.	16e-/LL	.	2cc\	.	.
.	.	16a/	.	.	.	.
8A\	.	16f/	.	.	.	.
.	.	16a/JJ	.	.	.	.
8F\	.	16e-/LL	.	.	.	.
.	.	16a/	.	.	.	.
8F\J	.	16f/	.	.	.	.
.	.	16a/JJ	.	.	.	.
!LO:LB:g=original	!	!LO:LB:g=original	!	!	!	!
=11	=11	=11	=11	=11	=11	=11
*xywh-#71:425,954,3419,371	*	*xywh-#52:589,1386,3508,338	*	*	*	*
8B-\L	.	8f/L	.	(16dd\LL	.	.
.	.	.	.	16b-\J)	.	.
8BB-/J	.	8d/	.	8ff'\J	.	.
8D\L	.	8B-/	.	(16bb-\LL	.	.
.	.	.	.	16ff\J)	.	.
8F\	.	8d/	.	8dd'\J	.	.
8D\	.	8f/	.	(16b-\LL	.	.
.	.	.	.	16dd\J)	.	.
8BB-\J	.	8d/J	.	8ff'\J	.	.
=12	=12	=12	=12	=12	=12	=12
!	!	!LO:SIC:s=8A'/L:v	!	!	!	!
8FF/L	.	8A/L	.	8cc'\L	.	.
!	!	!LO:SIC:s=(16A/L:v	!	!	!	!
8F\	.	16A/L	.	(16cc\L	.	.
!	!	!LO:SIC:s=16B-/JJ):v	!	!	!	!
.	.	16B-/JJ	.	16dd\JJ)	.	.
!	!	!LO:SIC:s=(16c/LL:v	!	!	!	!
8F\	.	16c/LL	.	(16cc/LL	.	.
!	!	!LO:SIC:s=16d/):v	!	!	!	!
.	.	16d/	.	16b-/)	.	.
!	!	!LO:SIC:s=16c'/:v	!	!	!	!
8F\J	.	16c/	.	16a'/	.	.
!	!	!LO:SIC:s=16B-'/JJ:	!	!	!	!
.	.	16B-/JJ	.	16g'/JJ	.	.
16F\LL	.	4A/	.	4f/	.	.
16E-\	.	.	.	.	.	.
16D\	.	.	.	.	.	.
16C\JJ	.	.	.	.	.	.
=13	=13	=13	=13	=13	=13	=13
4BB-/	p	(16d/LL	p	(4.b-\	.	p
.	.	16f/)	.	.	.	.
.	.	16b-'/	.	.	.	.
.	.	16f'/JJ	.	.	.	.
4B-\	.	8d'/L	.	.	.	.
.	.	8f'/	.	16gg\LL	.	.
.	.	.	.	16ff\JJ)	.	.
4r	.	8d'/	.	(16een\LL	.	.
.	.	.	.	16ff\	.	.
.	.	8B-'/J	.	16gg\	.	.
.	.	.	.	16ff\JJ)	.	.
!	!	!	!	!LO:LB:g=original	!	!
=14	=14	=14	=14	=14	=14	=14
*	*	*	*	*xywh-#24:541,1238,3374,350	*	*
4FF/	.	(16A/LL	.	8ff\L	.	.
.	.	16f/)	.	.	.	.
.	.	16a'/	.	8ee-X\J	.	.
.	.	16f'/JJ	.	.	.	.
4F\	.	8e-'/L	.	2cc\	.	.
.	.	8f'/	.	.	.	.
4r	.	8a'/	.	.	.	.
.	.	8f'/J	.	.	.	.
=15	=15	=15	=15	=15	=15	=15
8BB-/L	.	8d'/L	.	(16dd\LL	.	.
.	.	.	.	16ee-\	.	.
8BB-/	.	8d'/	.	16ff\	.	.
.	.	.	.	16gg\JJ)	.	.
8D/	.	8f'/	.	(16ff\LL	.	.
.	.	.	.	16gg\	.	.
8D/	.	8f'/	.	16aa\	.	.
.	.	.	.	16bb-\JJ)	.	.
8E-/	.	8g'/	.	(16cc\LL	.	.
.	.	.	.	16dd\	.	.
8C/J	.	8e-'/J	.	16ee-\	.	.
.	.	.	.	16ff\JJ)	.	.
=16	=16	=16	=16	=16	=16	=16
8F\L	.	8c'/L	.	(16ee-\LL	.	.
.	.	.	.	16dd\	.	.
8FF/J	.	8e-'/J	.	16ee-\	.	.
.	.	.	.	16cc\JJ)	.	.
8r	.	(4e-/	.	(4cc\	.	.
8F\	.	.	.	.	.	.
4B-\	.	4d/)	.	4b-\)	.	.
!	!	!LO:LB:g=original	!	!	!	!
=17	=17	=17	=17	=17	=17	=17
!LO:TX:t=P:problem:mixed beam	!LO:DY:b:t=F	!	!LO:DY:b:t=F	!	!	!LO:DY:b:t=F
*	*	*xywh-#52:595,1685,3421,352	*	*	*	*
8BB-/L	f	(16d/LL	f	16dd 16f 16B-/	.	f
.	.	16f/)	.	4dd\	.	.
16B-\L	.	(16d/	.	.	.	.
16A\JJ	.	16f/JJ)	.	.	.	.
8B-\L	.	(16d/LL	.	.	.	.
.	.	16f/)	.	16b-/LL	.	.
8F\	.	(16d/	.	16f/	.	.
.	.	16f/JJ)	.	16d/JJ	.	.
!	!	!	!	!LO:TX:t=P:problem:mixed beam	!	!
8D\	.	(16d/LL	.	8B-/L	.	.
.	.	16f/)	.	.	.	.
8BB-\J	.	(16d/	.	8dd\J	.	.
.	.	16f/JJ)	.	.	.	.
=18	=18	=18	=18	=18	=18	=18
8AA/L	.	(16c/LL	.	16cc/LL	.	.
.	.	16f/)	.	16a/	.	.
8A\J	.	(16c/	.	16f/	.	.
.	.	16f/JJ)	.	16c/JJ	.	.
*tremolo	*	*	*	*	*	*
8A\L	.	16c/LL	.	16A/LL	.	.
.	.	16f/	.	16c/	.	.
8A\	.	16c/	.	16f/	.	.
.	.	16f/JJ	.	16a/JJ	.	.
8A\	.	16c/LL	.	16cc\LL	.	.
.	.	16f/	.	16ff\	.	.
8A\J	.	16c/	.	16aa\	.	.
.	.	16f/JJ	.	16ccc\JJ	.	.
*Xtremolo	*	*	*	*	*	*
=19	=19	=19	=19	=19	=19	=19
8G\L	.	16c/LL	.	16bb-\LL	.	.
.	.	16en/	.	16gg\	.	.
8G\	.	16c/	.	16een\	.	.
.	.	16e/JJ	.	16cc\JJ	.	.
8En\	.	16c/LL	.	16b-/LL	.	.
.	.	16e/	.	16g/	.	.
!	!	!	!	!LO:SIC:s=16e/:v	!	!
8E\	.	16c/	.	16e-/	.	.
.	.	16e/JJ	.	16c/JJ	.	.
8C\	.	16c/LL	.	16B-/LL	.	.
.	.	16e/	.	16c/	.	.
8C\J	.	16c/	.	16G/	.	.
.	.	16e/JJ	.	16c/JJ	.	.
!LO:LB:g=original	!	!	!	!LO:LB:g=original	!	!
=20	=20	=20	=20	=20	=20	=20
*xywh-#71:425,1289,3336,320	*	*	*	*xywh-#24:555,1499,3425,336	*	*
4F\	.	(16g/LL	.	(16B-/LL	.	.
.	.	16f/)	.	16A/)	.	.
.	.	16b-'/	.	16d'/	.	.
.	.	16a'/JJ	.	16c'/JJ	.	.
8r	.	8a/L	.	8c/L	.	.
!LO:TX:t=P:problem:mixed beam	!	!	!	!	!	!
8FF/L	.	8a/J	.	8c/J	.	.
8F\	.	4a/	.	4c/	.	.
8FF/J	.	.	.	.	.	.
!	!	!LO:LB:g=original	!	!	!	!
=21	=21	=21	=21	=21	=21	=21
*	*	*xywh-#52:629,2031,3395,365	*	*	*	*
8CC/L	p	8enL 8G/	p	16cc'\LL	1	p
.	.	.	.	16b-'\JJ	.	.
8C/J	.	8e 8G/	.	4g/	.	.
8C/L	.	8e 8G/	.	.	.	.
8C/	.	8eJ 8G/	.	16a'/LL	.	.
.	.	.	.	16b-'/JJ	.	.
8C/	.	8fL 8A/	.	16a'\LL	.	.
.	.	.	.	16cc'\J	.	.
8C/J	.	8fJ 8A/	.	8ff\J	.	.
=22	=22	=22	=22	=22	=22	=22
*tremolo	*	*	*	*	*	*
8C/L	.	8b-L 8g/	.	16een\LL	.	.
.	.	.	.	16gg\J	.	.
8C/	.	8b- 8g/	.	(8.ccc\J	.	.
8C/	.	8b- 8g/	.	.	.	.
.	.	.	.	16bb-X\LL)	.	.
8C/	.	8b-J 8g/	.	16gg'\	.	.
.	.	.	.	16ee'\JJ	.	.
8C/	.	8aL 8f/	.	(16ff\LL	.	.
.	.	.	.	16aa\J)	.	.
!	!	!	!	!LO:SIC:s=8cc'\J:v	!	!
8C/J	.	8aJ 8f/	.	8cc\J	.	.
=23	=23	=23	=23	=23	=23	=23
!	!	!	!	!LO:SIC:s=16cc'\LL:v	!	!
8CC/L	.	8enL 8G/	.	16cc\LL	.	.
!	!	!	!	!LO:SIC:s=16b-'\JJ:v	!	!
.	.	.	.	16b-\JJ	.	.
8C/J	.	8e 8G/	.	4g/	.	.
8C/L	.	8e 8G/	.	.	.	.
!	!	!	!	!LO:SIC:s=16a'/LL:v	!	!
8C/	.	8eJ 8G/	.	16a/LL	.	.
!	!	!	!	!LO:SIC:s=16b-'/JJ:v	!	!
.	.	.	.	16b-/JJ	.	.
!	!	!	!	!LO:SIC:s=16a'\LL:v	!	!
8C/	.	8fL 8A/	.	16a\LL	.	.
!	!	!	!	!LO:SIC:s=16cc'\J:v	!	!
.	.	.	.	16cc\J	.	.
8C/J	.	8fJ 8A/	.	8ff\J	.	.
=24	=24	=24	=24	=24	=24	=24
8C/L	.	8b-L 8g/	.	16een\LL	.	.
.	.	.	.	16gg\J	.	.
8C/	.	8b- 8g/	.	(8.ccc\J	.	.
8C/	.	8b- 8g/	.	.	.	.
.	.	.	.	16bb-\LL)	.	.
!	!	!	!	!LO:SIC:s=16gg'\:v	!	!
8C/J	.	8b-J 8g/	.	16gg\	.	.
.	.	.	.	16ee'\JJ	.	.
*Xtremolo	*	*	*	*	*	*
8FF/L	.	8aL 8f/	.	(16ff\LL	.	.
.	.	.	.	16aa\J)	.	.
8F\J	.	8aJ 8f/	.	8cc'\J	.	.
=25	=25	=25	=25	=25	=25	=25
8BB-\L	.	4f/	.	(16dd\LL	.	.
.	.	.	.	16een\	.	.
8F\	.	.	.	16ff\	.	.
.	.	.	.	16ee\JJ	.	.
8B-\	.	4r	.	16gg\LL	.	.
.	.	.	.	16ff\	.	.
8F\	.	.	.	16ee\	.	.
.	.	.	.	16dd\JJ)	.	.
8A\	.	4r	.	(16cc\LL	.	.
.	.	.	.	16dd\	.	.
8F\J	.	.	.	16ee\	.	.
.	.	.	.	16ff\JJ)	.	.
!	!	!	!	!LO:LB:g=original	!	!
=26	=26	=26	=26	=26	=26	=26
!LO:MO:mod=!null:null	!	!	!	!	!	!
!LO:TX:a:t=I	!	!	!	!	!	!
*	*	*	*	*xywh-#24:531,1784,3435,299	*	*
2.r	.	8B-/L	.	(16dd\LL	.	.
.	.	.	.	16een\	.	.
.	.	8f/	.	16ff\	.	.
.	.	.	.	16ee\JJ	.	.
.	.	8b-/	.	16gg\LL	.	.
.	.	.	.	16ff\	.	.
.	.	8f/	.	16ee\	.	.
.	.	.	.	16dd\JJ)	.	.
.	.	8a/	.	(16cc\LL	.	.
.	.	.	.	16dd\	.	.
.	.	8f/J	.	16ee\	.	.
.	.	.	.	16ff\JJ)	.	.
=27	=27	=27	=27	=27	=27	=27
8B-\L	.	8f/	.	(16dd\LL	.	.
.	.	.	.	16een\	.	.
8B-\	.	4f/	.	16ff\	.	.
.	.	.	.	16dd\JJ	.	.
8A\	.	.	.	16cc\LL	.	.
.	.	.	.	16ee\	.	.
8A\	.	8f/	.	16ff\	.	.
.	.	.	.	16cc\JJ)	.	.
8G\	.	8en/L	.	(16b-\LL	.	.
.	.	.	.	16ee\	.	.
!LO:TX:t=P:problem:X zapisane ołówkiem	!	!	!	!	!	!
!LO:MO:mod=!null:null	!	!	!	!	!	!
!LO:TX:t=X:color=grey	!	!LO:TX:t=P:problem: brak ligatury w t. 27, w t. 28 widoczna	!	!	!	!
8En\J	.	[8c/J	.	16gg\	.	.
.	.	.	.	16b-\JJ)	.	.
!	!	!LO:LB:g=original	!	!	!	!
=28	=28	=28	=28	=28	=28	=28
*	*	*xywh-#52:615,2369,3408,345	*	*	*	*
8F\	.	8c/L]	.	(16a/LL	.	.
.	.	.	.	16cc/	.	.
8r	.	16d/L	.	16b-/	.	.
.	.	16B-/JJ	.	16g/JJ)	.	.
8r	.	(4B-/	.	(4g/	.	.
8C/	.	.	.	.	.	.
4F\	.	4A/)	.	4f/)	.	.
=29	=29	=29	=29	=29	=29	=29
!	!LO:DY:t= :mod=%s	!	!LO:MO:mod=!null:null	!	!	!
!	!LO:MO:mod=!LO&colon;DY&colon;ed=brack	!	!LO:DY:t=rinf	!	!	!
!	!null	!	!	!	!	!
8FF/L	rfz	8c/L	rfz	16ff\LL	.	.
.	.	.	.	16ee-X\JJ	.	.
8F\	.	8A/	.	4cc\	.	.
8A\	.	8f/	.	.	.	.
8F\	.	8A/	.	16dd\LL	.	.
.	.	.	.	16ee-\JJ	.	.
8B-\	.	8f/	.	16dd\LL	.	.
.	.	.	.	16ff\J	.	.
8F\J	.	8d/J	.	8bb-\J	.	.
!LO:LB:g=original	!	!	!	!	!	!
=30	=30	=30	=30	=30	=30	=30
*xywh-#71:425,1539,3387,352	*	*	*	*	*	*
8c\L	.	8f\L	.	16aa\LL	.	.
.	.	.	.	16ccc\J	.	.
8F\	.	8cc\	.	8.eee-\J	.	.
8A\	.	8f\	.	.	.	.
.	.	.	.	16ccc\LL	.	.
8F\	.	8ee-\	.	16aa\	.	.
.	.	.	.	16ccc\JJ	.	.
8B-\	.	8f\	.	(16bb-\LL	.	.
.	.	.	.	16ddd\J)	.	.
8BB-/J	.	8dd\J	.	8ff'\J	.	.
=31	=31	=31	=31	=31	=31	=31
8E-\L	.	8b-\	.	(16gg\LL	.	.
.	.	.	.	16aa\)	.	.
8B-\	.	4g/	.	16bb-'\	.	.
.	.	.	.	16aa'\JJ	.	.
8E-\	.	.	.	(16ccc\LL	.	.
.	.	.	.	16bb-\)	.	.
8B-\	.	8e-/	.	16aa'\	.	.
.	.	.	.	16gg'\JJ	.	.
8D\	.	8f/L	.	(16ff\LL	.	.
.	.	.	.	16ddd\)	.	.
8B-\J	.	8d/J	.	16bb-'\	.	.
.	.	.	.	16ff'\JJ	.	.
!	!	!	!	!LO:LB:g=original	!	!
=32	=32	=32	=32	=32	=32	=32
*	*	*	*	*xywh-#24:545,2055,3336,359	*	*
8C\L	.	8A/	.	16gg\LL	.	.
.	.	.	.	16ccc\	.	.
8F\	.	4c/	.	16aa\	.	.
.	.	.	.	16ccc\JJ	.	.
8G\	.	.	.	16eee-\LL	.	.
.	.	.	.	16ccc\	.	.
8A\	.	4f/	.	16aa\	.	.
.	.	.	.	16ee-\JJ	.	.
8B-\	.	.	.	16dd\LL	.	.
.	.	.	.	16bb-\	.	.
8BB-/J	.	8f/	.	16ff\	.	.
.	.	.	.	16dd\JJ	.	.
=33	=33	=33	=33	=33	=33	=33
4E-\	p	4g/	p	(16cc\LL	.	<
.	.	.	.	16bn\)	.	.
.	.	.	.	(16dd\	.	.
.	.	.	.	16cc\JJ)	.	.
4E-\	.	4g/	.	(16ee-\LL	.	.
.	.	.	.	16dd\)	.	.
.	.	.	.	(16ff\	.	.
.	.	.	.	16ee-\JJ)	.	.
4E-\	.	4g/	.	(16gg\LL	.	.
.	.	.	.	16ff#X\)	.	.
.	.	.	.	(16aa\	.	.
.	.	.	.	16gg\JJ)	.	[[
=34	=34	=34	=34	=34	=34	=34
8E-\L	.	4g/	.	(16ff\LL	.	>
.	.	.	.	16ee-\	.	.
8En\J	.	.	.	16dd\	.	.
.	.	.	.	16cc\JJ)	.	.
!	!	!	!	!LO:SIC:s=(16b-/LL:v	!	!
4F\	.	4c/	.	16b-/LL	.	.
!	!	!	!	!LO:SIC:s=16a/:v	!	!
.	.	.	.	(16a/	.	.
.	.	.	.	16ee-/	.	.
.	.	.	.	16cc/JJ	.	.
4r	.	4r	.	16a/LL	.	.
.	.	.	.	16f/	.	.
.	.	.	.	16g/	.	.
.	.	.	.	16a/JJ)	.	]]
=35	=35	=35	=35	=35	=35	=35
!	!LO:DY:t= :mod=%s	!	!	!	!	!
!	!LO:MO:mod=!LO&colon;DY&colon;ed=brack	!	!	!	!	!
!	!null	!	!	!	!	!
4BB-/	p	8d/L	p	4.b-\	.	p
.	.	8f/	.	.	.	.
4B-\	.	8d/	.	.	.	.
.	.	8f/	.	(16een\LL	.	.
.	.	.	.	16ff\JJ	.	.
4r	.	8d/	.	16ee\LL	.	.
.	.	.	.	16ff\	.	.
.	.	8B-/J	.	16gg\	.	.
.	.	.	.	16ff\JJ)	.	.
=36	=36	=36	=36	=36	=36	=36
4FF/	.	8A/L	.	(8ff\L	.	.
.	.	8c/	.	8ee-X\J)	.	.
4F\	.	8A/	.	2cc\	.	.
.	.	8f/	.	.	.	.
4r	.	8e-/	.	.	.	.
.	.	8f/J	.	.	.	.
!	!	!LO:LB:g=original	!	!	!	!
=37	=37	=37	=37	=37	=37	=37
*	*	*xywh-#52:609,2688,3435,325	*	*	*	*
8BB-/	.	8d/L	.	16dd\LL	.	.
.	.	.	.	16b-\J	.	.
8r	.	8B-/	.	8ff\J	.	.
8B-\	.	8d/	.	16bb-\LL	.	.
.	.	.	.	16ff\J	.	.
8r	.	8f/	.	8dd\J	.	.
8BB-/	.	8d/	.	16b-\LL	.	.
.	.	.	.	16dd\J	.	.
8r	.	8B-/J	.	8ff\J	.	.
!	!	!	!	!LO:LB:g=original	!	!
=38	=38	=38	=38	=38	=38	=38
*	*	*	*	*xywh-#24:530,2368,3388,327	*	*
4FF/	.	8A/L	.	8cc\L	.	.
.	.	16A/L	.	16cc\L	.	.
.	.	16B-/JJ	.	16dd\JJ	.	.
4r	.	16A/LL	.	16cc\LL	.	.
.	.	16d/	.	16b-\	.	.
.	.	16c/	.	16a\	.	.
.	.	16B-/JJ	.	16g\JJ	.	.
16F\LL	.	16A/LL	.	4f/	.	.
16E-\	.	16g/	.	.	.	.
16D\	.	16f/	.	.	.	.
16C\JJ	.	16e-/JJ	.	.	.	.
=39	=39	=39	=39	=39	=39	=39
!	!LO:DY:b:t=F	!	!LO:DY:b:t=F	!	!	!
!	!	!	!	!	!	!LO:DY:t= :mod=%s
!	!	!	!	!	!	!LO:MO:mod=!LO&colon;DY&colon;ed=brack
!	!	!	!	!	!	!null
8BB-/L	f	(16d/LL	f	4.b-\	.	f
.	.	16f/)	.	.	.	.
8B-\J	.	16b-'/	.	.	.	.
.	.	16f'/JJ	.	.	.	.
8B-\L	.	16d/LL	.	.	.	.
.	.	16f/	.	.	.	.
!	!	!	!	!LO:SIC:s=(16gg\LL:v	!	!
8B-\	.	16d/	.	16gg\LL	.	.
!	!	!	!	!LO:SIC:s=16ff\JJ:v	!	!
.	.	16f/JJ	.	(16ff\JJ	.	.
8B-\	.	16d/LL	.	16een\LL	.	.
.	.	16f/	.	16ff\	.	.
8B-\J	.	16d/	.	16gg\	.	.
.	.	16f/JJ	.	16ff\JJ)	.	.
!LO:LB:g=original	!	!	!	!	!	!
=40	=40	=40	=40	=40	=40	=40
!	!	!	!	!LO:SIC:s=(8ff\L:v	!	!
*xywh-#71:392,1808,3507,338	*	*	*	*	*	*
8c\L	.	(16e-/LL	.	8ff\L	.	.
.	.	16f/)	.	.	.	.
!	!	!	!	!LO:SIC:s=8ee-X\J):v	!	!
!	!	!LO:SIC:s=(16a/:v	!	!	!	!
8c\	.	16a/	.	8ee-X\J	.	.
!	!	!LO:SIC:s=16f/JJ):v	!	!	!	!
.	.	16f/JJ	.	.	.	.
8A\	.	(16e-/LL	.	2cc\	.	.
.	.	16f/)	.	.	.	.
8A\	.	(16e-/	.	.	.	.
.	.	16f/JJ)	.	.	.	.
8F\	.	(16e-/LL	.	.	.	.
.	.	16f/)	.	.	.	.
!	!	!LO:SIC:s=(16a/:v	!	!	!	!
8F\J	.	16a/	.	.	.	.
!	!	!LO:SIC:s=16f/JJ):v	!	!	!	!
.	.	16f/JJ	.	.	.	.
=41	=41	=41	=41	=41	=41	=41
!LO:TX:t=P:problem:mixed beam	!	!	!	!	!	!
8B-\L	.	8f/	.	(16dd\LL	.	.
.	.	.	.	16ee-\	.	.
8BB-/	.	4d/	.	16ff\	.	.
.	.	.	.	16gg\JJ)	.	.
8D/	.	.	.	(16ff\LL	.	.
.	.	.	.	16gg\	.	.
8D/	.	8f/	.	16aa\	.	.
.	.	.	.	16bb-\JJ)	.	.
8E-/	.	8g/L	.	(16cc\LL	.	.
.	.	.	.	16dd\	.	.
8C/J	.	8e-/J	.	16ee-\	.	.
.	.	.	.	16ff\JJ)	.	.
!	!	!LO:LB:g=original	!	!	!	!
=42	=42	=42	=42	=42	=42	=42
*	*	*xywh-#52:622,3021,3368,299	*	*	*	*
8F\L	.	8c/L	.	(16ee-\LL	.	.
.	.	.	.	16dd\	.	.
8FF/J	.	8e-/J	.	16ee-\	.	.
.	.	.	.	16cc\JJ)	.	.
8r	.	(16e-/LL	.	(4cc\	.	.
.	.	16d/	.	.	.	.
8FF/	.	16f/	.	.	.	.
.	.	16e-/JJ)	.	.	.	.
4BB-/	.	4d/	.	4b-\)	.	.
=43	=43	=43	=43	=43	=43	=43
!	!	!	!	!	!	!LO:DY:b:t=F
!	!LO:DY:t= :mod=%s	!	!LO:DY:t= :mod=%s	!	!	!
!	!LO:MO:mod=!LO&colon;DY&colon;ed=brack	!	!LO:MO:mod=!LO&colon;DY&colon;ed=brack	!	!	!
!	!null	!	!null	!	!	!
4BB-/	f	8d/	f	(4.ff\	.	f
.	.	4d/	.	.	.	.
4B-\	.	.	.	.	.	.
.	.	8d/	.	8bb-\)	.	.
4F\	.	8d/L	.	(16dd\LL	.	.
.	.	.	.	16ff\	.	.
.	.	(16c/L	.	16ee-\	.	.
.	.	16e-/JJ)	.	16cc\JJ)	.	.
=44	=44	=44	=44	=44	=44	=44
!	!	!	!	!LO:SIC:s=(16cc\LL:v	!	!
4BB-/	.	(16e-/LL	.	16cc\LL	.	.
.	.	16d/	.	16b-\	.	.
.	.	16c/	.	16a\	.	.
!	!	!	!	!LO:SIC:s=16b-\JJ):v	!	!
.	.	16d/JJ)	.	16b-\JJ	.	.
8B-\L	.	16d/LL	.	2b-\	.	.
.	.	16f/	.	.	.	.
8F\	.	16d/	.	.	.	.
.	.	16f/JJ	.	.	.	.
8D\	.	16d/LL	.	.	.	.
.	.	16f/	.	.	.	.
8BB-\J	.	16d/	.	.	.	.
.	.	16f/JJ	.	.	.	.
=45	=45	=45	=45	=45	=45	=45
4E-\	.	4e- 4B-/	.	16gg/LL	.	.
.	.	.	.	16e-/	.	.
.	.	.	.	16g/	.	.
.	.	.	.	16b-/JJ	.	.
4r	.	4r	.	16ee-\LL	.	.
.	.	.	.	16b-\	.	.
.	.	.	.	16gg\	.	.
.	.	.	.	16ee-\JJ	.	.
!LO:TX:t=P:problem:mixed beam	!	!	!	!	!	!
8EE-/L	.	8g/L	.	16bb-\LL	.	.
.	.	.	.	16aa\	.	.
8E-\J	.	8e-/J	.	16bb-\	.	.
.	.	.	.	16aa\JJ	.	.
!	!	!	!	!LO:LB:g=original	!	!
=46	=46	=46	=46	=46	=46	=46
*	*	*	*	*xywh-#24:535,2635,3378,341	*	*
.	.	.	.	8qqgg/	.	.
4BB-/	.	8r	.	8een\L	.	.
.	.	8d 8B-/	.	8ff\J	.	.
4BB-/	.	8dL 8B-/	.	2ff\	.	.
.	.	8d 8B-/	.	.	.	.
4r	.	8d 8B-/	.	.	.	.
.	.	8dJ 8B-/	.	.	.	.
=47	=47	=47	=47	=47	=47	=47
!	!	!	!	!LO:MO:mod=!null:null	!	!
*	*	*	*	*Xtuplet	*	*
!	!LO:DY:t= :mod=%s	!	!LO:MO:mod=!null:null	!	!	!
!	!LO:MO:mod=!LO&colon;DY&colon;ed=brack	!	!LO:DY:t=rinf	!	!	!
!	!null	!	!	!	!	!
8G\L	rfz	8enL 8B-/	rfz	(40een\LLL	.	.
.	.	.	.	40ff\	.	.
.	.	.	.	40gg\	.	.
.	.	.	.	40ff\	.	.
.	.	.	.	40ee\JJJ	.	.
8G\J	.	8eJ 8B-/	.	8.bb-\J)	.	.
4G\	.	4e 4B-/	.	.	.	.
.	.	.	.	16aa\LL	.	.
.	.	.	.	16gg\	.	.
.	.	.	.	16ff\JJ	.	.
!	!	!	!	!LO:SIC:s=16ee\LL:v	!	!
4r	.	4r	.	16ee-yX\LL	.	.
.	.	.	.	16dd\	.	.
.	.	.	.	16cc\	.	.
.	.	.	.	16b-\JJ	.	.
!	!	!LO:LB:g=original	!	!	!	!
=48	=48	=48	=48	=48	=48	=48
*	*	*xywh-#52:622,3326,3408,365	*	*	*	*
8F\L	.	8c/L	.	(40a\LLL	.	.
.	.	.	.	40b-\	.	.
.	.	.	.	40cc\	.	.
.	.	.	.	40b-\	.	.
.	.	.	.	40a\JJ	.	.
8FF/J	.	8A/J	.	8.ff\J)	.	.
4F\	.	4A/	.	.	.	.
!	!	!	!	!LO:SIC:s=16ee-\LL:v	!	!
.	.	.	.	16een\LL	.	.
.	.	.	.	16dd\	.	.
.	.	.	.	16cc\JJ	.	.
4r	.	4r	.	16b-/LL	.	.
.	.	.	.	16a/	.	.
.	.	.	.	16g/	.	.
.	.	.	.	16f#X/JJ	.	.
=49	=49	=49	=49	=49	=49	=49
!	!LO:DY:t= :mod=%s	!	!	!	!	!
!	!LO:MO:mod=!LO&colon;DY&colon;ed=brack	!	!	!	!	!
!	!null	!	!	!	!	!
4BB-/	p	4d'/	p	8gT\L	.	.
.	.	.	.	8b-T\	.	.
4B-\	.	4d'/	.	8ddt\	.	.
.	.	.	.	8ggT\	.	.
!	!	!LO:TX:t=P:problem:mixed beam	!	!	!	!
4B-\	.	8d/L	.	8bb-T\	.	.
.	.	8b-\J	.	24ddd\L	.	.
.	.	.	.	24bb-\	.	.
.	.	.	.	24gg\JJ	.	.
=50	=50	=50	=50	=50	=50	=50
!	!	!	!	!LO:SIC:s=(8ff\L:v	!	!
[4c\	.	(8a/L	.	8ff\L	.	.
!	!	!	!	!LO:SIC:s=8een\J):v	!	!
.	.	8g/J)	.	8een\J	.	.
8c\L]	.	4g/	.	4ee\	.	.
8B-\	.	.	.	.	.	.
8A\	.	4r	.	4r	.	.
8G\J	.	.	.	.	.	.
=51	=51	=51	=51	=51	=51	=51
8F\L	.	8a/L	.	8cc\L	.	.
.	.	8qqcc/	.	8qqeen/	.	.
!	!	!	!	!LO:SIC:s=(16dd\L:v	!	!
8En\	.	(16b-/L	.	16dd\L	.	.
!	!	!	!	!LO:SIC:s=16cc\JJ):v	!	!
.	.	16a/JJ)	.	16cc\JJ	.	.
8F\	.	8a/L	.	8cc\L	.	.
.	.	8qqcc/	.	8qqee/	.	.
!	!	!	!	!LO:SIC:s=(16dd\L:v	!	!
8E\J	.	(16b-/L	.	16dd\L	.	.
!	!	!	!	!LO:SIC:s=16cc\JJ):v	!	!
.	.	16a/JJ)	.	16cc\JJ	.	.
[4F\	.	[4a/	.	(16cc\LL	.	.
.	.	.	.	16ccc\)	.	.
.	.	.	.	(16ccc\	.	.
.	.	.	.	16aa\JJ)	.	.
!LO:LB:g=original	!	!	!	!LO:LB:g=original	!	!
=52	=52	=52	=52	=52	=52	=52
!LO:TX:t=P:problem:ligatura widoczna w t. 51, brak w t. 52	!	!	!	!	!	!
*xywh-#71:429,2114,3359,315	*	*	*	*xywh-#24:539,2920,3392,373	*	*
4F\]	.	4a/]	.	(16aa\LL	.	.
.	.	.	.	16ff\)	.	.
.	.	.	.	(16ff\	.	.
.	.	.	.	16cc\JJ)	.	.
4r	.	4r	.	16cc/LL	.	.
.	.	.	.	16a/	.	.
.	.	.	.	16a/	.	.
.	.	.	.	16f/JJ	.	.
4r	.	4r	.	16f/LL	.	.
.	.	.	.	16c/	.	.
.	.	.	.	16c/	.	.
.	.	.	.	16A/JJ	.	.
=53	=53	=53	=53	=53	=53	=53
!	!LO:MO:mod=!LO&colon;HP&colon;ed=brack	!	!	!	!	!
!	!null	!	!	!	!	!
!	!LO:MO:null:mod=<	!	!	!	!	!
8G\L	.	4c/	<	8B-'/L	.	.
.	.	.	.	8qqd/	.	.
8F#X\	.	.	.	(16c/L	.	.
.	.	.	.	16B-/JJ)	.	.
8G\	.	4c/	.	8B-'/L	.	.
.	.	.	.	8qqd/	.	.
8F#\	.	.	.	(16c/L	.	.
.	.	.	.	16B-/JJ)	.	.
!	!	!	!LO:MO:null:mod=.	!	!	!
8G\	.	4c/	[[	8B-'/L	.	.
.	.	.	.	8qqd/	.	.
!	!LO:MO:null:mod=[	!	!LO:MO:null:mod=[	!	!	!
8F#\J	.	.	.	(16c/L	.	.
.	.	.	.	16B-/JJ)	.	.
=54	=54	=54	=54	=54	=54	=54
!	!	!LO:TX:t=P:problem:mixed beam	!	!	!	!
8G\L	.	8B-/L	.	4B-/	.	.
!	!LO:DY:t= :mod=%s	!	!LO:MO:mod=!null:null	!	!	!
!	!LO:MO:mod=!LO&colon;DY&colon;ed=brack	!	!LO:DY:t=rinf	!	!	!
!	!null	!	!	!	!	!
16B-'\L	rfz	16dd'\L	rfz	.	.	.
16A'\JJ	.	16cc'\JJ	.	.	.	.
(16G\LL	.	(16b-\LL	.	4r	.	.
16A\)	.	16cc\)	.	.	.	.
16G'\	.	16b-'\	.	.	.	.
16F'\JJ	.	16a'\JJ	.	.	.	.
(16En\LL	.	(16g/LL	.	4r	.	.
16F\)	.	16a/)	.	.	.	.
16E'\	.	16g'/	.	.	.	.
16D'\JJ	.	16f'/JJ	.	.	.	.
=55	=55	=55	=55	=55	=55	=55
4C/	p	8g/L	p	8b-\L	.	.
.	.	8qqb-/	.	8qqdd/	.	.
.	.	16a/L	.	16cc\L	.	.
.	.	16g/JJ	.	16b-\JJ	.	.
4c\	.	8g/L	.	8b-\L	.	.
.	.	8qqb-/	.	8qqdd/	.	.
.	.	16a/L	.	16cc\L	.	.
.	.	16g/JJ	.	16b-\JJ	.	.
!	!	!LO:TX:t=P:problem: brak ligatury w t. 55, w t. 56 widoczna	!	!	!	!
4c\	.	[4g/	.	(16b-\LL	.	.
.	.	.	.	16bb-\)	.	.
.	.	.	.	(16bb-\	.	.
.	.	.	.	16gg\JJ)	.	.
!	!	!LO:LB:g=original	!	!	!	!
=56	=56	=56	=56	=56	=56	=56
*	*	*xywh-#52:605,3661,3581,352	*	*	*	*
4c\	.	4g/]	.	16gg\LL	.	.
.	.	.	.	16een\	.	.
.	.	.	.	16ee\	.	.
.	.	.	.	16cc\JJ	.	.
4r	.	4r	.	16cc/LL	.	.
.	.	.	.	16b-/	.	.
.	.	.	.	16b-/	.	.
.	.	.	.	16g/JJ	.	.
4r	.	4r	.	16g/LL	.	.
!	!	!	!	!LO:SIC:s=16e/:v	!	!
.	.	.	.	16e-/	.	.
.	.	.	.	16c/	.	.
.	.	.	.	16B-/JJ	.	.
=57	=57	=57	=57	=57	=57	=57
8F\L	.	8f/L	.	8A/L	.	.
.	.	8qqa/	.	8qqc/	.	.
8C\	.	16g/L	.	16B-/L	.	.
.	.	16f/JJ	.	16A/JJ	.	.
8F\	.	8f/L	.	8A/L	.	.
.	.	8qqa/	.	8qqc/	.	.
8C\	.	16g/L	.	16B-/L	.	.
.	.	16f/JJ	.	16A/JJ	.	.
8F\	.	8f/L	.	8A/L	.	.
.	.	8qqa/	.	8qqc/	.	.
8C\J	.	16g/L	.	16B-/L	.	.
.	.	16f/JJ	.	16A/JJ	.	.
!	!	!	!	!LO:LB:g=original	!	!
=58	=58	=58	=58	=58	=58	=58
*	*	*	*	*xywh-#24:558,3200,3378,350	*	*
16r	.	16f/LL	.	4A/	.	.
16F\LL	.	16a/	.	.	.	.
16En\	.	16g/	.	.	.	.
16D\JJ	.	16f/JJ	.	.	.	.
16C/LL	.	16en/LL	.	4r	.	.
16D/	.	16f/	.	.	.	.
16C/	.	16e/	.	.	.	.
16BB-/JJ	.	16d/JJ	.	.	.	.
16AA/LL	.	16c/LL	.	4r	.	.
16BB-/	.	16d/	.	.	.	.
16AA/	.	16c/	.	.	.	.
16GG/JJ	.	16B-/JJ	.	.	.	.
=59	=59	=59	=59	=59	=59	=59
!	!	!	!	!LO:MO:mod=!LO&colon;TX&colon;a&colon;i&colon;t=dolce	!	!
!	!	!	!	!LO:TX:a:i:t=dol	!	!
4FF/	.	4A/	.	(8a\L	.	.
.	.	.	.	8qqcc/	.	.
.	.	.	.	16b-\L	.	.
.	.	.	.	16a\JJ)	.	.
*	*	*	*	*tremolo	*	*
4r	.	4r	.	8a/L	.	.
.	.	.	.	8a/	.	.
4r	.	4r	.	8a/	.	.
.	.	.	.	8a/J	.	.
=60	=60	=60	=60	=60	=60	=60
!	!	!	!	!	!	!LO:MO:mod=!null:null
!	!	!	!	!	!	!LO:DY:t=rinf
!	!	!	!	!	!	!LO:MO:mod=!null:null
.	.	.	.	8qqa/	.	rfz
!	!LO:DY:t= :mod=%s	!	!	!	!	!LO:DY:t= :mod=%s
!	!LO:MO:mod=!LO&colon;DY&colon;ed=brack	!	!	!	!	!LO:MO:mod=!LO&colon;DY&colon;ed=
!	!null	!	!	!	!	!null
2.En\	p	8g/L	p	2.cc#X\	.	rfz
.	.	8qqb-/	.	.	.	.
.	.	16a/L	.	.	.	.
.	.	16g/JJ	.	.	.	.
.	.	8g/L	.	.	.	.
.	.	8a 8g/	.	.	.	.
.	.	8a 8g/	.	.	.	.
.	.	8aJ 8g/	.	.	.	.
=61	=61	=61	=61	=61	=61	=61
4D\	.	4a 4f/	.	(8dd\L	.	p
.	.	.	.	8qqff/	.	.
.	.	.	.	16ee-X\L	.	.
.	.	.	.	16dd\JJ)	.	.
4r	.	4r	.	8dd\L	.	.
.	.	.	.	8dd\	.	.
4r	.	4r	.	8dd\	.	.
.	.	.	.	8dd\J	.	.
*	*	*	*	*Xtremolo	*	*
=62	=62	=62	=62	=62	=62	=62
!	!	!	!	!	!	!LO:MO:mod=!null:null
!	!	!	!	!	!	!LO:DY:t=rinf
8c\L	.	2.a 2.f#X/	.	2.ee-\	.	rfz
16d\L	.	.	.	.	.	.
16c\JJ	.	.	.	.	.	.
*tremolo	*	*	*	*	*	*
8c\L	.	.	.	.	.	.
8c\	.	.	.	.	.	.
8c\	.	.	.	.	.	.
8c\J	.	.	.	.	.	.
*Xtremolo	*	*	*	*	*	*
!	!	!LO:LB:g=original	!	!	!	!
=63	=63	=63	=63	=63	=63	=63
!	!	!	!	!	!	!LO:DY:b:t=F
*xywh-#71:392,2360,3414,375	*	*xywh-#52:631,3960,3481,358	*	*	*	*
4B-\	.	4g/	.	8dd/L	.	f
.	.	.	.	(16f#X/L	.	.
.	.	.	.	16g/JJ)	.	.
4r	.	4r	.	(16a\LL	.	.
.	.	.	.	16b-\)	.	.
.	.	.	.	(16cc#X\	.	.
.	.	.	.	16dd\JJ)	.	.
!	!	!	!	!LO:SIC:s=(16ff#\LL:v	!	!
4r	.	4r	.	(16ff\LL	.	.
.	.	.	.	16gg\)	.	.
.	.	.	.	(16aa\	.	.
.	.	.	.	16bb-\JJ)	.	.
=64	=64	=64	=64	=64	=64	=64
.	.	.	.	8qqccc#X/	.	.
8r	.	8r	.	4.ddd\	.	.
8B-\L	.	8g/L	.	.	.	.
8BB-/J	.	8g/J	.	.	.	.
8r	.	8r	.	16eeen\LL	.	.
.	.	.	.	16ddd\JJ	.	.
!	!	!	!	!LO:SIC:s=16cccn\LL:v	!	!
4r	.	4r	.	16ccc#y\LL	.	.
.	.	.	.	16bb-\	.	.
.	.	.	.	16aa\	.	.
.	.	.	.	16bb-\JJ	.	.
=65	=65	=65	=65	=65	=65	=65
8r	.	8r	.	16ccc\LL	.	.
.	.	.	.	16fff\	.	.
8B-\	.	8f/	.	16ddd\	.	.
.	.	.	.	16bb-\JJ	.	.
!LO:TX:t=P:problem:mixed beam	!	!	!	!	!	!
8c\L	.	8f/L	.	4aa\	.	.
8c\	.	8f/	.	.	.	.
8C/	.	8en/	.	4ggT\	.	.
8C/J	.	8e/J	.	.	.	.
!	!	!	!	!LO:LB:g=original	!	!
=66	=66	=66	=66	=66	=66	=66
*	*	*	*	*xywh-#24:549,3480,3388,373	*	*
4F\	.	4f/	.	24ff\LL	.	.
.	.	.	.	24f\	.	.
.	.	.	.	24g\	.	.
.	.	.	.	24a\	.	.
.	.	.	.	24b-\	.	.
.	.	.	.	24cc\JJ	.	.
4r	.	4r	.	24dd\LL	.	.
.	.	.	.	24een\	.	.
.	.	.	.	24ff\	.	.
.	.	.	.	24gg\	.	.
.	.	.	.	24aa\	.	.
.	.	.	.	24bb-\JJ	.	.
4r	.	4r	.	24ccc\LL	.	.
.	.	.	.	24ddd\	.	.
.	.	.	.	24eeen\	.	.
.	.	.	.	24fff\	.	.
.	.	.	.	24eee\	.	.
.	.	.	.	24ddd\JJ	.	.
=67	=67	=67	=67	=67	=67	=67
2.En\	.	2.g [2.c/	.	24ccc'\LL	.	.
.	.	.	.	(24bb-\	.	.
.	.	.	.	24gg\)	.	.
.	.	.	.	24een`\	.	.
.	.	.	.	(24bb-\	.	.
.	.	.	.	24gg\JJ)	.	.
.	.	.	.	24ccc\LL	.	.
.	.	.	.	24bb-\	.	.
.	.	.	.	24gg\	.	.
.	.	.	.	24ee\	.	.
.	.	.	.	24bb-\	.	.
.	.	.	.	24gg\JJ	.	.
.	.	.	.	24ccc\LL	.	.
.	.	.	.	24bb-\	.	.
.	.	.	.	24gg\	.	.
.	.	.	.	24ee\	.	.
.	.	.	.	24bb-\	.	.
.	.	.	.	24gg\JJ	.	.
=68	=68	=68	=68	=68	=68	=68
4F\	.	4f 4c/]	.	24aa\LL	.	.
.	.	.	.	24f\	.	.
.	.	.	.	24g\	.	.
.	.	.	.	24a\	.	.
.	.	.	.	24b-\	.	.
.	.	.	.	24cc\JJ	.	.
4r	.	4r	.	24dd\LL	.	.
.	.	.	.	24eenX\	.	.
.	.	.	.	24ff\	.	.
.	.	.	.	24gg\	.	.
.	.	.	.	24aa\	.	.
.	.	.	.	24bb-\JJ	.	.
4r	.	4r	.	24ccc\LL	.	.
.	.	.	.	24ddd\	.	.
!	!	!	!	!LO:SIC:s=24eee\:v	!	!
.	.	.	.	24eee-\	.	.
.	.	.	.	24fff\	.	.
!	!	!	!	!LO:SIC:s=24eee\:v	!	!
.	.	.	.	24eee-\	.	.
.	.	.	.	24ddd\JJ	.	.
!	!	!	!	!LO:LB:g=original	!	!
=69	=69	=69	=69	=69	=69	=69
*	*	*	*	*xywh-#24:530,3761,3402,355	*	*
2.En\	.	2.g 2.c/	.	24ccc\LL	.	.
.	.	.	.	24bb-\	.	.
.	.	.	.	24gg\	.	.
.	.	.	.	24een\	.	.
.	.	.	.	24bb-\	.	.
.	.	.	.	24gg\JJ	.	.
.	.	.	.	24ccc\LL	.	.
.	.	.	.	24bb-\	.	.
.	.	.	.	24gg\	.	.
.	.	.	.	24ee\	.	.
.	.	.	.	24bb-\	.	.
.	.	.	.	24gg\JJ	.	.
.	.	.	.	24ccc\LL	.	.
.	.	.	.	24bb-\	.	.
.	.	.	.	24gg\	.	.
.	.	.	.	24ee\	.	.
.	.	.	.	24bb-\	.	.
.	.	.	.	24gg\JJ	.	.
=70	=70	=70	=70	=70	=70	=70
4F\	.	4f 4c/	.	24aa\LL	.	.
.	.	.	.	24ff\	.	.
.	.	.	.	24gg\	.	.
.	.	.	.	24aa\	.	.
.	.	.	.	24bb-\	.	.
.	.	.	.	24ccc\JJ	.	.
*	*	*	*	*8va	*	*
4r	.	4r	.	24ddd\LL	.	.
.	.	.	.	24aa\	.	.
.	.	.	.	24bb-\	.	.
.	.	.	.	24ccc\	.	.
.	.	.	.	24ddd\	.	.
.	.	.	.	24eeen\JJ	.	.
4r	.	4r	.	24fff\LL	.	.
.	.	.	.	24ccc\	.	.
.	.	.	.	24ddd\	.	.
.	.	.	.	24eee\	.	.
.	.	.	.	24fff\	.	.
.	.	.	.	24ggg\JJ	.	.
=71	=71	=71	=71	=71	=71	=71
!LO:MO:mod=!null:null	!	!LO:MO:mod=!null:null	!	!	!	!
!LO:TX:a:t=I	!	!LO:TX:a:t=I	!	!	!	!
2.r	.	2.r	.	24aaa\LL	.	.
.	.	.	.	24eeen\	.	.
.	.	.	.	24fff\	.	.
.	.	.	.	24ggg\	.	.
.	.	.	.	24aaa\	.	.
.	.	.	.	24bbb-\JJ	.	.
.	.	.	.	4cccc\	.	.
!	!	!	!	!LO:MO:mod=*X8va:null	!	!
*	*	*	*	*null	*	*
.	.	.	.	4r	.	.
!	!	!	!	!LO:MO:mod=*null:null	!	!
*	*	*	*	*X8va	*	*
=72	=72	=72	=72	=72	=72	=72
!	!	!	!	!LO:MO:mod=!null:null	!	!
!	!	!	!	!LO:TX:a:i:t=loco	!	!LO:DY:b:t=F
16r	.	8r	.	4.ee-X 4.f 4.A/	.	f
!	!LO:DY:t= :mod=%s	!	!	!	!	!
!	!LO:MO:mod=!LO&colon;DY&colon;ed=	!	!	!	!	!
!	!null	!	!	!	!	!
16FF/LL	rfz	.	.	.	.	.
!	!LO:MO:mod=!null:null	!	!LO:MO:mod=!null:null	!	!	!
!	!LO:DY:t=rinf	!	!LO:DY:t=rinf	!	!	!
!	!LO:MO:mod=*null:null	!	!	!	!	!
16AA/	rfz	8e-X 8c/	rfz	.	.	.
16C/JJ	.	.	.	.	.	.
4F\	.	4e- 4c/	.	.	.	.
.	.	.	.	24dd\LL	.	.
.	.	.	.	24cc\	.	.
.	.	.	.	24b-\JJ	.	.
4r	.	4r	.	16a/LL	.	.
.	.	.	.	16g/	.	.
.	.	.	.	16f/	.	.
.	.	.	.	16e-/JJ	.	.
!	!	!LO:LB:g=original	!	!LO:LB:g=original	!	!
=73	=73	=73	=73	=73	=73	=73
*	*	*xywh-#52:618,4279,3468,365	*	*xywh-#24:558,4032,3360,350	*	*
4BB-/	p	4d/	p	16d'/LL	.	.
.	.	.	.	(16f#X/	.	.
.	.	.	.	16g/	.	.
.	.	.	.	16f#/JJ)	.	.
4B-\	.	4d/	.	(16g/LL	.	.
.	.	.	.	16a/	.	.
.	.	.	.	16b-/	.	.
.	.	.	.	16a/JJ)	.	.
4B-\	.	4d/	.	(16b-\LL	.	.
.	.	.	.	16cc#X\	.	.
.	.	.	.	16dd\	.	.
.	.	.	.	16cc#\JJ)	.	.
=74	=74	=74	=74	=74	=74	=74
4B-\	.	4d/	.	16dd\LL	.	.
.	.	.	.	16ff#X\	.	.
.	.	.	.	16gg\	.	.
.	.	.	.	16ff#\JJ	.	.
4r	.	4r	.	16gg\LL	.	.
.	.	.	.	16aa\	.	.
.	.	.	.	16bb-\	.	.
.	.	.	.	16ccc\JJ	.	.
4r	.	4r	.	16ddd\LL	.	.
.	.	.	.	16eeen\	.	.
.	.	.	.	16fff\	.	.
.	.	.	.	16ddd\JJ	.	.
=75	=75	=75	=75	=75	=75	=75
8r	.	8r	.	4.ccc\	.	.
8c\	.	8a 8f/	.	.	.	.
4c\	.	4a 4f/	.	.	.	.
.	.	.	.	16fff\LL	.	.
.	.	.	.	16ddd\JJ	.	.
4r	.	4r	.	16ccc\LL	.	.
.	.	.	.	16aa\	.	.
.	.	.	.	16bb-\	.	.
.	.	.	.	16gg\JJ	.	.
=76	=76	=76	=76	=76	=76	=76
8r	.	8r	.	8ccc\	.	.
8c\	.	8a 8f/	.	4ccc\	.	.
4c\	.	4a 4f/	.	.	.	.
.	.	.	.	24eeen\LL	.	.
.	.	.	.	24fff\	.	.
.	.	.	.	24ddd\JJ	.	.
4r	.	4r	.	16ccc\LL	.	.
.	.	.	.	16aa\	.	.
.	.	.	.	16bb-\	.	.
.	.	.	.	16gg\JJ	.	.
=77	=77	=77	=77	=77	=77	=77
*	*	*	*	*8va	*	*
4c\	.	4a 4f/	.	8ccc\L	.	.
.	.	.	.	16ddd\L	.	.
.	.	.	.	16eeen\JJ	.	.
4r	.	4r	.	16fff\LL	.	.
.	.	.	.	16ggg\	.	.
.	.	.	.	16aaa\	.	.
.	.	.	.	16bbb-\JJ	.	.
4r	.	4r	.	8cccc\	.	.
*	*	*	*	*X8va	*	*
!	!	!	!	!LO:MO:mod=!null:null	!	!
!	!	!	!	!LO:TX:a:i:t=loco	!	!
.	.	.	.	8r	.	.
=78	=78	=78	=78	=78	=78	=78
*tremolo	*	*	*	*	*	*
8c\L	.	8een\L	.	2.ggT\	.	.
8c\	.	8ee\	.	.	.	.
8c\	.	8ee\	.	.	.	.
8c\J	.	8ee\	.	.	.	.
*Xtremolo	*	*	*	*	*	*
8C/L	.	8ee\	.	.	.	.
8C/J	.	8ee\J	.	.	.	.
!LO:LB:g=original	!	!	!	!LO:LB:g=original	!	!
=79	=79	=79	=79	=79	=79	=79
*xywh-#71:382,2650,3452,389	*	*	*	*xywh-#24:544,4336,3388,373	*	*
2.F\	p	8ff\L	p	4ff\	.	.
.	.	8cc\	.	.	.	.
.	.	8a\	.	8r	.	.
.	.	8cc\	.	8aat\L	.	.
.	.	8a\	.	8ff\	.	.
.	.	8cc\J	.	8aa\J	.	.
=80	=80	=80	=80	=80	=80	=80
2.C/	.	2.b- 2.g/	.	(16aa\LL	.	.
.	.	.	.	16gg\)	.	.
.	.	.	.	(16bb-\	.	.
.	.	.	.	16aa\JJ)	.	.
.	.	.	.	(16aa\LL	.	.
.	.	.	.	16gg\)	.	.
.	.	.	.	(16gg\	.	.
.	.	.	.	16ff\JJ)	.	.
.	.	.	.	(16ff\LL	.	.
.	.	.	.	16een\)	.	.
.	.	.	.	(16dd\	.	.
.	.	.	.	16cc\JJ)	.	.
!	!	!LO:LB:g=original	!	!	!	!
=81	=81	=81	=81	=81	=81	=81
*	*	*xywh-#52:631,4658,3448,385	*	*	*	*
2.FF/	.	8a/L	.	16ff\LL	.	.
.	.	.	.	16aa\J	.	.
.	.	8c/	.	8cc\J	.	.
.	.	8A/	.	8r	.	.
.	.	8c/	.	8a/L	.	.
.	.	8A/	.	8f/	.	.
.	.	8c/J	.	8a/J	.	.
=82	=82	=82	=82	=82	=82	=82
!	!	!LO:SIC:s=2.c/:v	!	!	!	!
2.C/	.	2.B-/	.	16a/LL	.	.
.	.	.	.	16g/	.	.
.	.	.	.	16b-/	.	.
.	.	.	.	16a/JJ	.	.
.	.	.	.	16a/LL	.	.
.	.	.	.	16g/	.	.
.	.	.	.	16g/	.	.
.	.	.	.	16f/JJ	.	.
.	.	.	.	16f/LL	.	.
.	.	.	.	16en/	.	.
.	.	.	.	16d/	.	.
.	.	.	.	16c/JJ	.	.
=83	=83	=83	=83	=83	=83	=83
8F\L	.	8A/L	.	4f/	.	.
8A\J	.	8c/J	.	.	.	.
4F\	.	4A/	.	8r	.	.
.	.	.	.	8fT</L	.	.
4r	.	4r	.	8c/	.	.
.	.	.	.	8a/J	.	.
=84	=84	=84	=84	=84	=84	=84
8r	.	8r	.	4f/	.	.
8A\	p	8c/	p	.	.	.
4F\	.	4A/	.	8r	.	.
.	.	.	.	8a/L	.	.
4r	.	4r	.	8f/	.	.
.	.	.	.	8cc/J	.	.
=85	=85	=85	=85	=85	=85	=85
8r	.	8r	.	4a/	.	.
8A\	.	8c/	.	.	.	.
4F\	.	4A/	.	8r	.	.
.	.	.	.	8ee-X\	.	.
4r	.	4r	.	8cc\L	.	.
.	.	.	.	16gg\L	.	.
.	.	.	.	16ff\JJ	.	.
!	!	!	!	!LO:LB:g=original	!	!
=86	=86	=86	=86	=86	=86	=86
!	!LO:MO:mod=!null:null	!	!LO:MO:mod=!null:null	!	!	!
!	!LO:DY:t=rinf	!	!LO:DY:t=rinf	!	!	!
*	*	*	*	*xywh-#24:521,4616,3411,411	*	*
[2.F\	rfz	2.e-X [2.c/	rfz	(16ff\LL	.	.
.	.	.	.	16ee-\	.	.
.	.	.	.	16ccc\	.	.
.	.	.	.	16aa\JJ	.	.
.	.	.	.	16eee-\LL	.	.
.	.	.	.	16ccc\	.	.
.	.	.	.	16aa\	.	.
.	.	.	.	16ff\JJ	.	.
.	.	.	.	16ee-\LL	.	.
.	.	.	.	16cc\	.	.
.	.	.	.	16a\	.	.
.	.	.	.	16f\JJ)	.	.
=87	=87	=87	=87	=87	=87	=87
4F\]	.	4e- 4c/]	.	(16e-/LL	.	.
.	.	.	.	16c/	.	.
.	.	.	.	16A/	.	.
.	.	.	.	16c/JJ	.	.
4r	.	4r	.	16e-/LL	.	.
.	.	.	.	16f/	.	.
.	.	.	.	16a/	.	.
.	.	.	.	16cc/JJ	.	.
4r	.	4r	.	16ee-/LL	.	.
.	.	.	.	16cc/	.	.
.	.	.	.	16a/	.	.
.	.	.	.	16cc/JJ)	.	.
=88	=88	=88	=88	=88	=88	=88
4BB-/	p	8d/L	p	4.b-\	.	p
.	.	8f/	.	.	.	.
4B-\	.	8d/	.	.	.	.
.	.	8f/	.	(16een\LL	.	.
.	.	.	.	16ff\JJ	.	.
4r	.	8d/	.	16ee\LL	.	.
.	.	.	.	16ff\	.	.
.	.	8B-/J	.	16gg\	.	.
.	.	.	.	16ff\JJ)	.	.
!	!	!LO:PB:g=original	!	!	!	!
=89	=89	=89	=89	=89	=89	=89
*	*	*xywh-#53:354,575,3480,528	*	*	*	*
4FF/	.	8A/L	.	8ff\L	.	.
.	.	8c/	.	8ee-X\J	.	.
!LO:SIC:s=4F\:v	!	!	!	!	!	!
4F'\	.	8A/	.	2cc\	.	.
.	.	8f/	.	.	.	.
4r	.	8e-/	.	.	.	.
.	.	8f/J	.	.	.	.
=90	=90	=90	=90	=90	=90	=90
8BB-/	.	8d/L	.	(16dd\LL	.	.
.	.	.	.	16b-\J)	.	.
8r	.	8B-/	.	8ff'\J	.	.
8B-\	.	8d/	.	16bb-\LL	.	.
.	.	.	.	16ff\J	.	.
8r	.	8f/	.	8dd\J	.	.
8BB-/	.	8d/	.	16b-\LL	.	.
.	.	.	.	16dd\J	.	.
8r	.	8B-/J	.	8ff\J	.	.
=91	=91	=91	=91	=91	=91	=91
4FF/	.	8A/L	.	8cc\L	.	.
.	.	16A/L	.	16cc\L	.	.
.	.	16B-/JJ	.	16dd\JJ	.	.
4F\	.	16A/LL	.	16cc\LL	.	.
.	.	16d/	.	16b-\	.	.
.	.	16c/	.	16a\	.	.
.	.	16B-/JJ	.	16g\JJ	.	.
16F\LL	.	4A/	.	4f/	.	.
16E-\	.	.	.	.	.	.
16D\	.	.	.	.	.	.
16C\JJ	.	.	.	.	.	.
!	!	!	!	!LO:PB:g=original	!	!
=92	=92	=92	=92	=92	=92	=92
*	*	*	*	*xywh-#25:406,531,3470,440	*	*
4BB-/	.	8r	.	4.b-\	.	.
!	!	!	!LO:MO:mod=!null:null	!	!	!
!	!	!	!LO:DY:t=rinf	!	!	!
.	.	16dd\LL	rfz	.	.	.
.	.	16b-\JJ	.	.	.	.
4r	.	16f/LL	.	.	.	.
.	.	16b-/	.	.	.	.
!	!	!	!	!	!	!LO:MO:mod=!null:null
!	!	!	!	!	!	!LO:DY:t=rinf
.	.	16f/	.	16gg'\LL	.	rfz
.	.	16d/JJ	.	16ff'\JJ	.	.
8r	.	4B-/	.	(16een\LL	.	.
.	.	.	.	16ff\	.	.
8BB-/	.	.	.	16gg\	.	.
.	.	.	.	16ff\JJ)	.	.
=93	=93	=93	=93	=93	=93	=93
4FF/	.	8r	.	8ff\L	.	.
.	.	16A/LL	.	8ee-X\J	.	.
.	.	16c/JJ	.	.	.	.
4r	.	16f/LL	.	2cc\	.	.
.	.	16cc/	.	.	.	.
.	.	16a/	.	.	.	.
.	.	16f/JJ	.	.	.	.
8r	.	8e-/	.	.	.	.
8FF/	.	8r	.	.	.	.
!LO:LB:g=original	!	!	!	!	!	!
=94	=94	=94	=94	=94	=94	=94
*xywh-#71:400,2943,3484,338	*	*	*	*	*	*
8BB-/L	.	8d/L	.	(16dd\LL	.	.
.	.	.	.	16ee-\	.	.
8BB-/	.	8d/	.	16ff\	.	.
.	.	.	.	16gg\JJ)	.	.
8D/	.	8f/	.	(16ff\LL	.	.
.	.	.	.	16gg\	.	.
8D/	.	8f/	.	16aa\	.	.
.	.	.	.	16bb-\JJ)	.	.
8E-/	.	8g/	.	(16cc\LL	.	.
.	.	.	.	16dd\	.	.
8E-/J	.	8c/J	.	16ee-\	.	.
.	.	.	.	16ff\JJ)	.	.
!	!	!LO:LB:g=original	!	!	!	!
=95	=95	=95	=95	=95	=95	=95
*	*	*xywh-#53:374,1043,3420,394	*	*	*	*
4F\	.	8c/L	.	(16ee-\LL	.	.
.	.	.	.	16dd\	.	.
.	.	8e-/J	.	16ee-\	.	.
.	.	.	.	16cc\JJ)	.	.
8r	.	(16e-/LL	.	(4cc\	.	.
.	.	16f/	.	.	.	.
8B-\	.	16e-/	.	.	.	.
.	.	16f/JJ)	.	.	.	.
4BB-/	.	4d/	.	4b-\)	.	.
=96||	=96||	=96||	=96||	=96||	=96||	=96||
!	!	!LO:MO:mod=*null:null	!	!	!	!
*	*	*clefG2	*	*	*	*
*k[b-e-a-d-g-]	*	*k[b-e-a-d-g-]	*	*k[b-e-a-d-g-]	*	*
!	!	!	!	!LO:MO:mod=!null:null	!	!
!	!	!	!	!LO:TX:a:t=Minore	!	!
!LO:MO:mod=!null:null	!	!	!	!LO:MO:mod=!LO&colon;TX&colon;a&colon;i&colon;t=dolce	!	!
!LO:TX:a:t=Mineur	!	!	!	!LO:TX:b:i:t=dol	!	!
!	!LO:DY:t= :mod=%s	!	!	!	!	!
!	!LO:MO:mod=!LO&colon;DY&colon;ed=brack	!	!	!	!	!
!	!null	!	!	!	!	!
4BB-/	p	8r	.	(8f\L	.	.
!	!	!LO:MO:mod=!null:null	!	!	!	!
!	!	!LO:TX:a:t=Minore	!	!	!	!
.	.	8f/	p	8dd-X\J)	.	.
4r	.	(8d-X/L	.	(4.dd-\	.	.
.	.	8f/	.	.	.	.
4r	.	8d-/	.	.	.	.
.	.	8f/J)	.	16cc\LL	.	.
.	.	.	.	16b-\JJ)	.	.
=97	=97	=97	=97	=97	=97	=97
4C/	.	8r	.	(8b-/L	.	.
.	.	8f/	.	8an/J)	.	.
4r	.	(8e-/L	.	4a/	.	.
.	.	8f/	.	.	.	.
4r	.	8e-/	.	4r	.	.
.	.	8f/J)	.	.	.	.
=98	=98	=98	=98	=98	=98	=98
4AAn/	.	8r	.	8f/L	.	.
.	.	8c/	.	8ff\J	.	.
4r	.	(8An/L	.	4.ff\	.	.
.	.	8c/	.	.	.	.
4r	.	8A/	.	.	.	.
.	.	8c/J)	.	8ee-\	.	.
=99	=99	=99	=99	=99	=99	=99
.	.	.	.	8qqee-/	.	.
4BB-/	.	8r	.	(8dd-\L	.	.
.	.	8f/	.	16cc\L	.	.
.	.	.	.	16b-\JJ)	.	.
4r	.	(8d-/L	.	4b-\	.	.
.	.	8f/	.	.	.	.
4r	.	8d-/	.	4r	.	.
.	.	8f/J)	.	.	.	.
!	!	!LO:LB:g=original	!	!LO:LB:g=original	!	!
=100	=100	=100	=100	=100	=100	=100
*	*	*xywh-#53:408,1378,3379,394	*	*xywh-#25:503,892,3396,344	*	*
4E-\	.	8r	.	(8b-\L	.	.
.	.	8e- 8B-/	.	8gg-\J)	.	.
4r	.	8e-L 8B-/	.	[4gg-\	.	.
.	.	8e- 8B-/	.	.	.	.
4r	.	8e- 8B-/	.	24gg-\LL]	.	.
.	.	.	.	24ff\	.	.
.	.	.	.	24ee-\	.	.
.	.	8e-J 8B-/	.	24dd-\	.	.
.	.	.	.	24cc\	.	.
.	.	.	.	24b-\JJ	.	.
=101	=101	=101	=101	=101	=101	=101
4F\	.	8r	.	(8an\L	.	.
.	.	8f 8An/	.	8ccc\J)	.	.
!	!	!	!	!	!	!LO:MO:mod=!null:null
!	!	!	!	!	!	!LO:DY:t=rinf
4r	.	8fL 8A/	.	[4ccc\	.	rfz
.	.	8f 8A/	.	.	.	.
4r	.	8f 8c/	.	24ccc\LL]	.	.
!	!	!	!	!LO:SIC:s=24aa\:v	!	!
.	.	.	.	24aa-\	.	.
.	.	.	.	24ff\	.	.
.	.	8fJ 8c/	.	24gg-\	.	.
.	.	.	.	24ff\	.	.
.	.	.	.	24ee-\JJ	.	.
=102	=102	=102	=102	=102	=102	=102
4BB-/	.	4f 4B-/	.	(16dd-\LL	.	p
.	.	.	.	16ff\	.	.
.	.	.	.	16bb-\	.	.
.	.	.	.	16ff\JJ)	.	.
8r	.	(16d-/LL	.	(16ff\LL	.	.
.	.	16e-/)	.	16gg-\)	.	.
8D-\L	.	(16e-/	.	(16gg-\	.	.
.	.	16d-/JJ)	.	16ff\JJ)	.	.
8E-\	.	(16d-/LL	.	(16ff\LL	.	.
.	.	16c/)	.	16ee-\)	.	.
8En\J	.	(16c/	.	(16ee-\	.	.
.	.	16B-/JJ)	.	16dd-\JJ)	.	.
=103	=103	=103	=103	=103	=103	=103
[4F\	.	4B-/	.	(8.dd-\L	.	.
.	.	.	.	16cc\	.	.
8F\L]	.	4An/	.	16ee-\	.	.
.	.	.	.	16dd-\J)	.	.
8E-X\	.	.	.	4cc\	.	.
8D-\	.	4r	.	.	.	.
8C\J	.	.	.	8r	.	.
=104	=104	=104	=104	=104	=104	=104
!	!LO:DY:t= :mod=%s	!	!	!	!	!
!	!LO:MO:mod=!LO&colon;DY&colon;ed=brack	!	!	!	!	!
!	!null	!	!	!	!	!
4BB-/	p	8r	.	8f/L	.	p
.	.	8f 8d-/	p	8dd-/J	.	.
4r	.	8fL 8d-/	.	4.dd-\	.	.
.	.	8f 8d-/	.	.	.	.
4r	.	8f 8d-/	.	.	.	.
.	.	8fJ 8d-/	.	16cc\LL	.	.
.	.	.	.	16b-\JJ	.	.
=105	=105	=105	=105	=105	=105	=105
4C/	.	8r	.	8b-/L	.	.
.	.	8f 8e-/	.	8an/J	.	.
4r	.	8fL 8e-/	.	4a/	.	.
.	.	8f 8e-/	.	.	.	.
4r	.	8f 8e-/	.	4r	.	.
.	.	8fJ 8e-/	.	.	.	.
!	!	!LO:LB:g=original	!	!	!	!
=106	=106	=106	=106	=106	=106	=106
*	*	*xywh-#53:441,1733,3346,374	*	*	*	*
4AAn/	.	8r	.	8f/L	.	.
.	.	8f 8c/	.	8ff\J	.	.
4r	.	8fL 8c/	.	4.ff\	.	.
.	.	8f 8c/	.	.	.	.
!LO:TX:t=P:problem:X zapisane ołówkiem	!	!	!	!	!	!
!LO:MO:mod=!null:null	!	!	!	!	!	!
!LO:TX:t=X:color=grey	!	!	!	!	!	!
4r	.	8f 8c/	.	.	.	.
.	.	8fJ 8c/	.	8ee-\	.	.
!	!	!	!	!LO:LB:g=original	!	!
=107	=107	=107	=107	=107	=107	=107
*	*	*	*	*xywh-#25:486,1169,3385,384	*	*
.	.	.	.	8qqee-/	.	.
4BB-/	.	8r	.	8dd-\L	.	.
.	.	8f 8d-/	.	16cc\L	.	.
.	.	.	.	16b-\JJ	.	.
!	!	!LO:SIC:s=8fL 8d-/:v	!	!	!	!
4r	.	8fL 8c/	.	4b-\	.	.
!	!	!LO:SIC:s=8f 8d-/:v	!	!	!	!
.	.	8f 8c/	.	.	.	.
!	!	!LO:SIC:s=8f 8d-/:v	!	!	!	!
4r	.	8f 8c/	.	4r	.	.
!	!	!LO:SIC:s=8fJ 8d-/:v	!	!	!	!
.	.	8fJ 8c/	.	.	.	.
!LO:LB:g=original	!	!	!	!	!	!
=108	=108	=108	=108	=108	=108	=108
*xywh-#71:414,3207,3345,371	*	*	*	*	*	*
4E-\	.	8r	.	8b-\L	.	.
.	.	8e- 8B-/	<	8gg-X\J	.	.
4r	.	8e-L 8B-/	.	[4gg-\	.	.
.	.	8e- 8B-/	.	.	.	.
4r	.	8e- 8B-/	.	24gg-\LL]	.	.
.	.	.	.	24ff\	.	.
.	.	.	.	24ee-\	.	.
.	.	8e-J 8B-/	[[	24dd-\	.	.
.	.	.	.	24cc\	.	.
.	.	.	.	24b-\JJ	.	.
=109	=109	=109	=109	=109	=109	=109
*tremolo	*	*	*	*	*	*
!	!LO:DY:b:t=F	!	!LO:DY:b:t=F	!	!	!LO:DY:b:t=F
!	!	!LO:SIC:s=8e-L 8A-/:v	!	!LO:SIC:s=8a-\L:v	!	!
8C/L	f	8e-L 8A-X/	f	8a-X\L	.	f
8C/	.	8e- 8A-/	.	[8eee-\J	.	.
8C/	.	8e- 8A-/	.	4eee-\]	.	.
8C/J	.	8e-J 8A-/	.	.	.	.
*Xtremolo	*	*	*	*	*	*
!LO:SIC:s=8AA-/L:v	!	!	!	!	!	!
8AA-X/L	.	8e-L 8c/	.	24eee-\LL	.	.
.	.	.	.	24ccc\	.	.
.	.	.	.	24aa-\	.	.
8A-\J	.	8e-J 8c/	.	24bb-\	.	.
.	.	.	.	24aa-\	.	.
.	.	.	.	24gg-X\JJ	.	.
=110	=110	=110	=110	=110	=110	=110
4D-\	.	4f/	.	16ff'\LL	.	.
.	.	.	.	(16aa-\	.	.
.	.	.	.	16bb-\)	.	.
.	.	.	.	(16aa-\JJ	.	.
8F\L	.	8a-/L	.	16ddd-\LL)	.	.
.	.	.	.	(16aa-\	.	.
8E-\J	.	8g-X/J	.	16eee-\)	.	.
.	.	.	.	(16aa-\JJ	.	.
4D-\	.	4f/	.	16fff\LL)	.	.
.	.	.	.	(16aa-\	.	.
.	.	.	.	16bb-\)	.	.
.	.	.	.	(16aa-\JJ	.	.
=111	=111	=111	=111	=111	=111	=111
2A-\	.	4e-/	.	24gg-X\LL)	.	.
.	.	.	.	24aa-'\	.	.
.	.	.	.	24ccc'\	.	.
.	.	.	.	24eee-'\	.	.
.	.	.	.	24aa-'\	.	.
.	.	.	.	24ccc'\JJ	.	.
.	.	[4g-/	.	24eee-\LL	.	.
.	.	.	.	24aa-\	.	.
.	.	.	.	24ccc\	.	.
.	.	.	.	24eee-\	.	.
.	.	.	.	24aa-\	.	.
.	.	.	.	24ccc\JJ	.	.
4AA-/	.	8g-/L]	.	24eee-\LL	.	.
.	.	.	.	24ddd-\	.	.
.	.	.	.	24ccc\	.	.
.	.	8e-/J	.	24bb-\	.	.
.	.	.	.	24aa-\	.	.
.	.	.	.	24gg-\JJ	.	.
!	!	!	!	!LO:LB:g=original	!	!
=112	=112	=112	=112	=112	=112	=112
*	*	*	*	*xywh-#25:469,1474,3413,344	*	*
4D-\	.	4f/	.	16ff\LL	.	.
.	.	.	.	16aa-\	.	.
.	.	.	.	16bb-\	.	.
.	.	.	.	16aa-\JJ	.	.
8F\L	.	8a-/L	.	16ddd-\LL	.	.
.	.	.	.	16aa-\	.	.
8E-\J	.	8g-/J	.	16eee-\	.	.
.	.	.	.	16aa-\JJ	.	.
4D-\	.	4f/	.	16fff\LL	.	.
.	.	.	.	16aa-\	.	.
.	.	.	.	16bb-\	.	.
.	.	.	.	16aa-\JJ	.	.
=113	=113	=113	=113	=113	=113	=113
2A-\	.	4e-/	.	24gg-X\LL	.	.
.	.	.	.	24aa-\	.	.
.	.	.	.	24ccc\	.	.
.	.	.	.	24eee-\	.	.
.	.	.	.	24aa-\	.	.
.	.	.	.	24ccc\JJ	.	.
.	.	[4g-/	.	24eee-\LL	.	.
.	.	.	.	24aa-\	.	.
.	.	.	.	24ccc\	.	.
.	.	.	.	24eee-\	.	.
.	.	.	.	24aa-\	.	.
.	.	.	.	24ccc\JJ	.	.
4AA-/	.	8g-/L]	.	24eee-\LL	.	.
.	.	.	.	24ddd-\	.	.
.	.	.	.	24ccc\	.	.
.	.	8e-/J	.	24bb-\	.	.
.	.	.	.	24aa-\	.	.
.	.	.	.	24gg-\JJ	.	.
!	!	!LO:LB:g=original	!	!	!	!
=114	=114	=114	=114	=114	=114	=114
*	*	*xywh-#53:421,2067,3346,327	*	*	*	*
8D-\	.	8f/L	.	(16ff\LL	.	.
.	.	.	.	16ddd-\)	.	.
8r	.	8e-/J	.	16bb-'\	.	.
.	.	.	.	16gg-X'\JJ	.	.
8A-\L	.	8d-/L	.	4ff\	.	.
8A-\	.	8d-/	.	.	.	.
8AA-/	.	8c/	.	4ee-T\	.	.
8AA-/J	.	8c/J	.	.	.	.
=115	=115	=115	=115	=115	=115	=115
4D-\	.	4d-/	.	4.dd-\	.	.
4r	.	4r	.	.	.	.
.	.	.	.	8ff'\L	.	.
8r	.	8r	.	8ff'\	.	.
8B-\	.	8d-/	.	8ff'\J	.	.
=116	=116	=116	=116	=116	=116	=116
*tremolo	*	*	*	*	*	*
8An\L	.	8c/L	.	4.ff\	.	.
8A\	.	8c/	.	.	.	.
8A\	.	8c/	.	.	.	.
8A\	.	8c/J	.	16gg-X\LL	.	.
.	.	.	.	16ff\JJ	.	.
.	.	.	.	8qqff/	.	.
8A\	.	8c/L	.	(8ee-\L	.	.
8A\J	.	8f/J	.	16dd-\L	.	.
.	.	.	.	16cc\JJ)	.	.
=117	=117	=117	=117	=117	=117	=117
.	.	.	.	8qqee-/	.	.
4B-\	.	4f/	.	(8dd-\L	.	.
.	.	.	.	16cc\L	.	.
.	.	.	.	16b-\JJ)	.	.
4r	.	4r	.	8b-\L	.	.
.	.	.	.	8dd-'\	.	.
4r	.	4r	.	8dd-'\	.	.
.	.	.	.	8dd-'\J	.	.
!	!	!	!	!LO:LB:g=original	!	!
=118	=118	=118	=118	=118	=118	=118
*	*	*	*	*xywh-#25:480,1763,3436,350	*	*
8r	.	8r	.	4.dd-\	.	.
8F\	.	8A-/	.	.	.	.
8F\L	.	8A-/L	.	.	.	.
8F\	.	8A-/	.	16ee-\LL	.	.
.	.	.	.	16dd-\JJ	.	.
.	.	.	.	8qqdd-/	.	.
8F\	.	8d-/	.	8cc-X\L	.	.
8F\J	.	8d-/J	.	16b-\L	.	.
.	.	.	.	16a-\JJ	.	.
*Xtremolo	*	*	*	*	*	*
=119	=119	=119	=119	=119	=119	=119
!	!	!	!	!LO:SIC:s=8qqcc-/:v	!	!
.	.	.	.	8qqcc/	.	.
2G-X\	.	(4d-/	.	8b-/L	.	.
.	.	.	.	16a-/L	.	.
.	.	.	.	16g-X/JJ	.	.
.	.	8B-/)	.	8g-\L	.	.
.	.	8r	.	8b-'\	.	.
4r	.	4r	.	8b-'\	.	.
.	.	.	.	8b-'\J	.	.
=120	=120	=120	=120	=120	=120	=120
!	!LO:DY:b:t=F	!	!LO:DY:b:t=F	!	!	!
!	!	!	!	!	!	!LO:DY:t= :mod=%s
!	!	!	!	!	!	!LO:MO:mod=!LO&colon;DY&colon;ed=brack
!	!	!	!	!	!	!null
4F\	f	4a- 4B-/	f	4b-T\	.	f
4r	.	4r	.	8ddn\L	.	.
.	.	.	.	8b-\	.	.
4r	.	4r	.	8b-\	.	.
.	.	.	.	8b-\J	.	.
=121	=121	=121	=121	=121	=121	=121
4E-\	.	4g-X 4B-/	.	4b-T\	.	.
4r	.	8g-/L	.	8ee-\L	.	.
.	.	8b-/	.	8ee-\	.	.
4r	.	8a-/	.	8ff\	.	.
.	.	8b-/J	.	8ff\J	.	.
=122	=122	=122	=122	=122	=122	=122
!	!	!	!	!	!	!LO:MO:mod=!null:null
!	!	!	!	!	!	!LO:DY:t=rinf
!	!	!	!LO:DY:t= :mod=%s	!	!	!
!	!	!	!LO:MO:mod=!LO&colon;DY&colon;ed=brack	!	!	!
!	!	!	!null	!	!	!
4E-\	p	4b- 4g-X/	p	4gg-X\	.	rfz
.	.	.	.	8qqaa-/	.	.
4E-\	.	4b- 4g-/	.	8gg-\L	.	.
.	.	.	.	16ff\L	.	.
.	.	.	.	16ee-\JJ	.	.
.	.	.	.	8qqee-/	.	.
4En\	.	4gn/	.	8dd-\L	.	.
.	.	.	.	16cc\L	.	.
.	.	.	.	16b-\JJ	.	.
!LO:LB:g=original	!	!LO:LB:g=original	!	!	!	!
=123	=123	=123	=123	=123	=123	=123
!	!LO:DY:b:t=F	!	!LO:DY:b:t=F	!	!	!LO:DY:b:t=F
*xywh-#71:410,3523,3363,334	*	*xywh-#53:421,2335,3339,394	*	*	*	*
4F\	f	4c/	f	16an/LL	.	f
.	.	.	.	16f/J	.	.
.	.	.	.	8ft</J	.	.
4r	.	4r	.	16a/LL	.	.
.	.	.	.	16f/	.	.
.	.	.	.	16cc/	.	.
.	.	.	.	16a/JJ	.	.
4F\	.	4an/	.	16ff\LL	.	.
.	.	.	.	16ee-\	.	.
.	.	.	.	16dd-\	.	.
.	.	.	.	16cc\JJ	.	.
=124	=124	=124	=124	=124	=124	=124
4F\	.	4b-/	.	16dd-/LL	.	.
.	.	.	.	16f/J	.	.
.	.	.	.	8ft</J	.	.
4r	.	4r	.	16b-/LL	.	.
.	.	.	.	16f/	.	.
.	.	.	.	16dd-/	.	.
.	.	.	.	16b-/JJ	.	.
4F\	.	4d-/	.	16ff\LL	.	.
.	.	.	.	16dd-\	.	.
.	.	.	.	16cc\	.	.
.	.	.	.	16b-\JJ	.	.
!	!	!	!	!LO:LB:g=original	!	!
=125	=125	=125	=125	=125	=125	=125
*	*	*	*	*xywh-#25:463,2056,3447,339	*	*
4F\	p	4c/	p	16an/LL	.	p
.	.	.	.	16f/J	.	.
.	.	.	.	8ft</J	.	.
4r	.	4r	.	16a/LL	.	.
.	.	.	.	16f/	.	.
.	.	.	.	16cc/	.	.
.	.	.	.	16a/JJ	.	.
4F\	.	4an/	.	16ff\LL	.	.
.	.	.	.	16ee-\	.	.
.	.	.	.	16dd-\	.	.
.	.	.	.	16cc\JJ	.	.
=126	=126	=126	=126	=126	=126	=126
4F\	.	4b-/	.	16dd-/LL	.	.
.	.	.	.	16f/J	.	.
.	.	.	.	8ft</J	.	.
4r	.	4r	.	16b-/LL	.	.
.	.	.	.	16f/	.	.
.	.	.	.	16dd-/	.	.
.	.	.	.	16b-/JJ	.	.
4F\	.	4d-/	.	16ff\LL	.	.
.	.	.	.	16dd-\	.	.
.	.	.	.	16cc\	.	.
.	.	.	.	16b-\JJ	.	.
=127	=127	=127	=127	=127	=127	=127
!	!LO:DY:b:t=F	!	!LO:DY:b:t=F	!	!	!LO:DY:b:t=F
4FF/	f	4c/	f	8an'/L	.	f
!	!	!	!	!LO:TUP:b:problem:klamra łukowa	!	!
.	.	.	.	40f/LL	.	.
.	.	.	.	40g-/	.	.
.	.	.	.	40a/	.	.
.	.	.	.	40g-/	.	.
.	.	.	.	40f/JJJ	.	.
4F\	.	4an 4c'/	.	8cc'\L	.	.
!	!	!	!	!LO:TUP:b:problem:klamra łukowa	!	!
.	.	.	.	40a\LL	.	.
.	.	.	.	40b-\	.	.
.	.	.	.	40cc\	.	.
.	.	.	.	40b-\	.	.
.	.	.	.	40a\JJJ	.	.
4F\	.	4a 4c'/	.	8ee-'\L	.	.
!	!	!	!	!LO:TUP:b:problem:klamra łukowa	!	!
.	.	.	.	40cc\LL	.	.
.	.	.	.	40dd-\	.	.
.	.	.	.	40ee-\	.	.
.	.	.	.	40dd-\	.	.
.	.	.	.	40cc\JJJ	.	.
=128	=128	=128	=128	=128	=128	=128
4F\	.	4an 4c'/	.	8aan'\L	.	.
!	!	!	!	!LO:TUP:b:problem:klamra łukowa	!	!
.	.	.	.	40ff\LL	.	.
.	.	.	.	40gg-\	.	.
.	.	.	.	40aa\	.	.
.	.	.	.	40gg-\	.	.
.	.	.	.	40ff\JJJ	.	.
*	*	*	*	*8va	*	*
4F\	.	4a 4c'/	.	8ccc'\L	.	.
!	!	!	!	!LO:TUP:b:problem:klamra łukowa	!	!
!	!	!	!	!LO:SIC:s=40aa\LL:v	!	!
.	.	.	.	40aa-yX\LL	.	.
.	.	.	.	40bb-\	.	.
.	.	.	.	40ccc\	.	.
.	.	.	.	40bb-\	.	.
!	!	!	!	!LO:SIC:s=40aa\JJJ:v	!	!
.	.	.	.	40aa-\JJJ	.	.
4F\	.	4a 4c'/	.	8eee-'\L	3	.
!	!	!	!	!LO:TUP:b:problem:klamra łukowa	!	!
.	.	.	.	40ccc\LL	.	.
.	.	.	.	40ddd-\	.	.
.	.	.	.	40eee-\	.	.
.	.	.	.	40ddd-\	.	.
.	.	.	.	40ccc\JJJ	.	.
!	!	!	!	!LO:LB:g=original	!	!
=129	=129	=129	=129	=129	=129	=129
*	*	*	*	*xywh-#25:491,2300,3424,406	*	*
8F\L	.	8anL 8e-'/	.	4.ggg-\	.	>
8F\J	.	8aJ 8e-'/	.	.	.	.
4F\	.	4a 4e-'/	.	.	.	.
.	.	.	.	24fff\LL	4	.
.	.	.	.	24eee-\	.	.
.	.	.	.	24ddd-\JJ	.	.
4r	.	4r	.	16ccc\LL	.	]
.	.	.	.	16bb-\	.	.
.	.	.	.	16aan\	.	.
.	.	.	.	16ccc\JJ	.	.
=130	=130	=130	=130	=130	=130	=130
8F\L	.	8anL 8e-'/	.	4.eee-\	.	>
8F\J	.	8aJ 8e-'/	.	.	.	.
4F\	.	4a 4e-'/	.	.	.	.
.	.	.	.	24ddd-\LL	4	.
.	.	.	.	24ccc\	.	.
.	.	.	.	24bb-\JJ	.	.
4r	.	4r	.	16aan/LL	.	]
.	.	.	.	16gg-/	.	.
.	.	.	.	16ff/	.	.
.	.	.	.	16aa/JJ	.	.
*	*	*	*	*X8va	*	*
=131	=131	=131	=131	=131	=131	=131
!	!LO:DY:t= :mod=%s	!	!	!LO:MO:mod=!null:null	!	!
!	!LO:MO:mod=!LO&colon;DY&colon;ed=brack	!	!	!LO:TX:a:i:t=loco	!	!
!	!null	!	!	!	!	!
8F\L	p	8anL 8e-/	p	4.ccc\	.	.
8F\J	.	8aJ 8e-/	.	.	.	.
4F\	.	4a 4e-/	.	.	.	.
.	.	.	.	24bb-\LL	.	.
.	.	.	.	24aan\	.	.
.	.	.	.	24gg-\JJ	.	.
4r	.	4r	.	16ff\LL	.	.
.	.	.	.	16gg-\	.	.
.	.	.	.	16een\	.	.
.	.	.	.	16gg-\JJ	.	.
=132	=132	=132	=132	=132	=132	=132
.	.	.	.	16qqff/LL	.	.
!	!	!	!	!LO:SIC:s=16qqaa/JJ:v	!	!
.	.	.	.	16qqaa-/JJ	.	.
8F\L	.	8anL 8e-/	.	4.ccc\	.	.
8F\J	.	8aJ 8e-/	.	.	.	.
4F\	.	4a 4e-/	.	.	.	.
.	.	.	.	24bb-\LL	.	.
.	.	.	.	24aan\	.	.
.	.	.	.	24gg-\JJ	.	.
4r	.	4r	.	16ff\LL	.	.
.	.	.	.	16gg-\	.	.
.	.	.	.	16een\	.	.
.	.	.	.	16gg-\JJ	.	.
!	!	!LO:LB:g=original	!	!	!	!
=133	=133	=133	=133	=133	=133	=133
*	*	*xywh-#53:415,2683,3413,381	*	*	*	*
4F\	.	4an 4c/	.	16ff\LL	.	.
.	.	.	.	16gg-\	.	.
.	.	.	.	16een\	.	.
.	.	.	.	16gg-\JJ	.	.
4r	.	4r	.	16ff\LL	.	.
.	.	.	.	16gg-\	.	.
.	.	.	.	16ee\	.	.
.	.	.	.	16gg-\JJ	.	.
4r	.	4r	.	16ff\LL	.	.
.	.	.	.	16gg-\	.	.
.	.	.	.	16ee\	.	.
.	.	.	.	16gg-\JJ	.	.
!	!	!	!	!LO:LB:g=original	!	!
=134	=134	=134	=134	=134	=134	=134
!LO:MO:mod=!null:null	!	!LO:MO:mod=!null:null	!	!	!	!
!LO:TX:a:t=I	!	!LO:TX:a:t=I	!	!	!	!
*	*	*	*	*xywh-#25:490,2638,3430,344	*	*
2.r	.	2.r	.	4.ff\	.	.
.	.	.	.	(24bb-\LL	.	.
.	.	.	.	24aan\	.	.
.	.	.	.	24ggn\JJ	.	.
.	.	.	.	16ff\LL	.	.
.	.	.	.	16een\	.	.
!	!	!	!	!LO:SIC:s=16ee-X\:v	!	!
.	.	.	.	16ee-X\)	.	.
!	!	!	!	!LO:SIC:s=16cc\JJ):v	!	!
.	.	.	.	16cc\JJ	.	.
!LO:MO:mod=*kcancel:null	!	!LO:MO:mod=*kcancel:null	!	!LO:MO:mod=*kcancel:null	!	!
*null	*	*null	*	*null	*	*
!!LO:MO:ori
=135	=135	=135	=135	=135	=135	=135
*k[andngnb-e-]	*	*k[andngn]	*	*k[b-e-]	*	*
!	!	!LO:TX:t=P:problem:brak bemoli, na źródle 3 kasowniki, bemole pokazane dopiero na początku w kolejnym systemie 	!	!LO:TX:b:t=Majeur	!	!
8r	.	8r	.	4.b-\	.	.
!LO:TX:a:t=Majeur	!	!	!	!	!	!
8D'\	pp	8f/	pp	.	.	.
8BB-'/L	.	8d'/L	.	.	.	.
8D'/	.	8f'/	.	(16een\LL	.	.
.	.	.	.	16ff\JJ	.	.
8BB-'/	.	8d'/	.	16ee\LL	.	.
.	.	.	.	16ff\	.	.
8D'/J	.	8f'/J	.	16gg\	.	.
.	.	.	.	16ff\JJ)	.	.
!!LO:MO:end
!!LO:MO:mod
!! =135||	=135||	=135||	=135||	=135||	=135||	=135||
!! *k[b-e-]	*	*k[b-e-]	*	*k[b-e-]	*	*
!! 8r	.	8r	.	4.b-\	.	.
!! 8D'\	pp	8f'/	pp	.	.	.
!! 8BB-'/L	.	8d'/L	.	.	.	.
!! 8D'/	.	8f'/	.	(16een\LL	.	.
!! .	.	.	.	16ff\JJ	.	.
!! 8BB-'/	.	8d'/	.	16ee\LL	.	.
!! .	.	.	.	16ff\	.	.
!! 8D'/J	.	8f'/J	.	16gg\	.	.
!! .	.	.	.	16ff\JJ)	.	.
!! =136	=136	=136	=136	=136	=136	=136
!!LO:MO:end
=136	=136	=136	=136	=136	=136	=136
!	!	!	!	!LO:SIC:s=(8ff\L:v	!	!
8FF/L	.	8A/L	.	8ff\L	.	.
!	!	!	!	!LO:SIC:s=8ee-X\J):v	!	!
8F\	.	8c/	.	8ee-X\J	.	.
8E-\	.	8A/	.	2cc\	.	.
8F\	.	8c/	.	.	.	.
8FF/	.	8A/	.	.	.	.
8F\J	.	8e-y/J	.	.	.	.
=137	=137	=137	=137	=137	=137	=137
4BB-/	.	8d/L	.	(16dd\LL	.	.
.	.	.	.	16b-\J)	.	.
.	.	8B-y/	.	8ff'\J	.	.
4r	.	8d/	.	(16bb-\LL	.	.
.	.	.	.	16ff\J)	.	.
.	.	8f/	.	8dd'\J	.	.
4BB-/	.	8d/	.	(16b-\LL	.	.
.	.	.	.	16dd\J)	.	.
.	.	8B-/J	.	8ff'\J	.	.
!LO:LB:g=original	!	!	!	!	!	!
=138	=138	=138	=138	=138	=138	=138
*xywh-#71:396,3792,3405,352	*	*	*	*	*	*
4FF/	.	8A/L	.	8cc\L	.	.
.	.	16A/L	.	16cc\L	.	.
.	.	16B-y/JJ	.	16dd\JJ	.	.
!	!	!LO:SIC:s=(16A/LL:v	!	!	!	!
4r	.	16A/LL	.	(16cc/LL	.	.
!	!	!LO:SIC:s=16B-/):v	!	!	!	!
.	.	16B-/	.	16b-/)	.	.
!	!	!LO:SIC:s=16c'/:v	!	!	!	!
.	.	16c/	.	16a'/	.	.
!	!	!LO:SIC:s=16B-'/JJ:v	!	!	!	!
.	.	16B-/JJ	.	16g'/JJ	.	.
16F\LL	.	4A/	.	4f/	.	.
16E-\	.	.	.	.	.	.
16D\	.	.	.	.	.	.
16C\JJ	.	.	.	.	.	.
=139	=139	=139	=139	=139	=139	=139
!LO:TX:t=P:problem:mixed beam	!	!	!	!	!	!
8BB-'/L	.	8d/L	.	4.b-\	.	.
(8d\	.	8f/J	.	.	.	.
8B-\	.	8d/	.	.	.	.
8F\	.	4B-y/	.	(16gg\LL	.	.
.	.	.	.	16ff\JJ	.	.
8D\	.	.	.	16een\LL	.	.
.	.	.	.	16ff\	.	.
8BB-\J)	.	8d/	.	16gg\	.	.
.	.	.	.	16ff\JJ)	.	.
=140	=140	=140	=140	=140	=140	=140
8AA'/L	.	8c/L	.	(8ff\L	.	.
(8FF/	.	8A/	.	8ee-X\J)	.	.
8AA/	.	8c/	.	2cc\	.	.
8C/	.	8f/	.	.	.	.
8F/	.	8e-y/	.	.	.	.
8A/J)	.	8f/J	.	.	.	.
!	!	!LO:LB:g=original	!	!LO:LB:g=original	!	!
=141	=141	=141	=141	=141	=141	=141
*	*	*xywh-#53:388,3024,3460,374	*	*xywh-#25:524,2927,3351,350	*	*
8B-\L	.	8f/L	.	(16dd\LL	.	.
.	.	.	.	16ee-\	.	.
8F\	.	8d/	.	16ff\	.	.
.	.	.	.	16gg\JJ)	.	.
8D\	.	8B-y/	.	(16ff\LL	.	.
.	.	.	.	16gg\	.	.
8BB-\	.	8f/	.	16aa\	.	.
.	.	.	.	16bb-\JJ)	.	.
8E-\	.	8g/	.	(16cc\LL	.	.
.	.	.	.	16dd\	.	.
8C\J	.	8e-y/J	.	16ee-\	.	.
.	.	.	.	16ff\JJ)	.	.
=142	=142	=142	=142	=142	=142	=142
4F\	.	(16e-y/LL	.	(16ee-\LL	.	.
.	.	16f/	.	16dd\	.	.
.	.	16g/	.	16ee-\	.	.
.	.	16e-/JJ)	.	16cc\JJ)	.	.
8r	.	(4e-/	.	(4cc\	.	.
8F\	.	.	.	.	.	.
8BB-/L	.	4d/)	.	4b-\)	.	.
8B-\J	.	.	.	.	.	.
=143	=143	=143	=143	=143	=143	=143
!	!	!	!LO:DY:b:t=F	!	!	!LO:DY:b:t=F
16r	.	(16d/LL	f	8dd 8f 8B-/	.	f
!	!LO:DY:t= :mod=%s	!	!	!	!	!
!	!LO:MO:mod=!LO&colon;DY&colon;ed=brack	!	!	!	!	!
!	!null	!	!	!	!	!
16BB-\LL	f	16f/)	.	.	.	.
16D\	.	16b-y'/	.	4dd\	.	.
16F\JJ	.	16f'/JJ	.	.	.	.
8B-\L	.	(16d/LL	.	.	.	.
.	.	16f/)	.	.	.	.
8B-\	.	(16d/	.	24b-/LL	.	.
.	.	.	.	24f/	.	.
.	.	16f/JJ)	.	.	.	.
.	.	.	.	24d/JJ	.	.
!	!	!	!	!LO:TX:t=P:problem:mixed beam	!	!
8B-\	.	(16d/LL	.	8B-/L	.	.
.	.	16f/)	.	.	.	.
8BB-/J	.	(16d/	.	8dd\J	.	.
.	.	16f/JJ)	.	.	.	.
=144	=144	=144	=144	=144	=144	=144
16r	.	(16A/LL	.	16cc/LL	.	.
16FF/LL	.	16c/)	.	16a/	.	.
16AA/	.	(16A/	.	16f/	.	.
16C/JJ	.	16c/JJ)	.	16c/JJ	.	.
8F\L	.	16A/LL	.	16A/LL	.	.
.	.	16c/	.	16c/	.	.
8F\	.	16A/	.	16f/	.	.
.	.	16c/JJ	.	16a/JJ	.	.
8F\	.	16A/LL	.	16cc\LL	.	.
.	.	16c/	.	16ff\	.	.
8FF/J	.	16f/	.	16aa\	.	.
.	.	16a/JJ	.	16ccc\JJ	.	.
=145	=145	=145	=145	=145	=145	=145
8C\L	.	8b-y\L	.	16bb-\LL	.	.
.	.	.	.	16gg\	.	.
8C\	.	8b-\	.	16een\	.	.
.	.	.	.	16cc\JJ	.	.
8En\	.	8b-\	.	16b-/LL	.	.
.	.	.	.	16g/	.	.
!	!	!	!	!LO:SIC:s=16e/:v	!	!
8E\	.	8b-\J	.	16e-/	.	.
.	.	.	.	16c/JJ	.	.
8C\	.	8en/L	.	16B-/LL	.	.
.	.	.	.	16c/	.	.
8C\J	.	8e/J	.	16G/	.	.
.	.	.	.	16c/JJ	.	.
!	!	!LO:LB:g=original	!	!	!	!
=146	=146	=146	=146	=146	=146	=146
!	!	!	!	!LO:SIC:s=(16B-/LL:v	!	!
*	*	*xywh-#53:395,3339,3426,368	*	*	*	*
4F\	.	(16g/LL	.	16B-/LL	.	.
!	!	!	!	!LO:SIC:s=16A/):v	!	!
.	.	16f/)	.	16A/	.	.
!	!	!	!	!LO:SIC:s=16d'/:v	!	!
.	.	16b-y'/	.	16d/	.	.
!	!	!	!	!LO:SIC:s=16c'/JJ:v	!	!
.	.	16a'/JJ	.	16c/JJ	.	.
8r	.	8a/L	.	8c/L	.	.
!LO:TX:t=P:problem:mixed beam	!	!	!	!	!	!
8FF/L	.	8a/J	.	8c/J	.	.
8F\	.	4a/	.	4c/	.	.
8FF/J	.	.	.	.	.	.
!	!	!	!	!LO:LB:g=original	!	!
=147	=147	=147	=147	=147	=147	=147
!	!	!	!	!LO:MO:mod=!LO&colon;TX&colon;a&colon;i&colon;t=dolce	!	!
!	!	!	!	!LO:TX:a:i:t=dol	!	!
*	*	*	*	*xywh-#25:507,3198,3396,316	*	*
8CC/L	p	8enL 8G/	p	16cc`\LL	.	.
.	.	.	.	16b-`\JJ	.	.
8C/J	.	8e 8G/	.	4g\	.	.
*tremolo	*	*	*	*	*	*
8C/L	.	8e 8G/	.	.	.	.
8C/	.	8eJ 8G/	.	16a\LL	.	.
.	.	.	.	16b-\JJ	.	.
8C/	.	8fL 8A/	.	16a\LL	.	.
.	.	.	.	16cc\J	.	.
8C/J	.	8fJ 8A/	.	8ff\J	.	.
=148	=148	=148	=148	=148	=148	=148
8C/L	.	8b-yL 8g/	.	16een\LL	.	.
.	.	.	.	16gg\J	.	.
8C/	.	8b- 8g/	.	(8.ccc\J	.	.
8C/	.	8b- 8g/	.	.	.	.
.	.	.	.	16bb-\LL)	.	.
8C/	.	8b-J 8g/	.	16gg`\	.	.
.	.	.	.	16ee`\JJ	.	.
8C/	.	8aL 8f/	.	(16ff\LL	.	.
.	.	.	.	16aa\J)	.	.
8C/J	.	8aJ 8f/	.	8cc`\J	.	.
*Xtremolo	*	*	*	*	*	*
!LO:LB:g=original	!	!	!	!	!	!
=149	=149	=149	=149	=149	=149	=149
*xywh-#71:396,4103,3401,320	*	*	*	*	*	*
8CC/L	.	8en/L	.	16cc\LL	.	.
.	.	.	.	16b-\JJ	.	.
8C/J	.	8G/J	.	4g/	.	.
8En/L	.	8G/L	.	.	.	.
8C/	.	8G/	.	16a/LL	.	.
.	.	.	.	16b-/JJ	.	.
8F/	.	8A/	.	16a\LL	.	.
.	.	.	.	16cc\J	.	.
8C/J	.	8A/J	.	8ff\J	.	.
=150	=150	=150	=150	=150	=150	=150
8G\L	.	8B-y/L	.	16een\LL	.	.
.	.	.	.	16gg\J	.	.
8C\	.	8B-/	.	(8.ccc\J	.	.
8En\	.	8B-/	.	.	.	.
.	.	.	.	16bb-\LL)	.	.
8C\	.	8B-/J	.	16gg\	.	.
.	.	.	.	16ee\JJ	.	.
8F\	.	8A/L	.	16ff\LL	.	.
.	.	.	.	16aa\J	.	.
8C\J	.	8A/J	.	8cc\J	.	.
=151	=151	=151	=151	=151	=151	=151
8BB-\L	.	4B-y/	.	(16dd\LL	.	.
.	.	.	.	16een\	.	.
8F\	.	.	.	16ff\	.	.
.	.	.	.	16ee\JJ)	.	.
8B-\	.	4r	.	(16gg\LL	.	.
.	.	.	.	16ff\	.	.
8F\	.	.	.	16ee\	.	.
.	.	.	.	16dd\JJ)	.	.
8A\	.	4r	.	(16cc\LL	.	.
.	.	.	.	16dd\	.	.
8F\J	.	.	.	16ee\	.	.
.	.	.	.	16ff\JJ)	.	.
!	!	!	!	!LO:LB:g=original	!	!
=152	=152	=152	=152	=152	=152	=152
!LO:MO:mod=!null:null	!	!	!	!	!	!
!LO:TX:a:t=I	!	!	!	!	!	!
*	*	*	*	*xywh-#25:507,3475,3356,333	*	*
2.r	.	8b-y/L	.	(16dd\LL	.	.
.	.	.	.	16een\	.	.
.	.	8f/	.	16ff\	.	.
!	!	!	!	!LO:SIC:s=16ee\JJ):v	!	!
.	.	.	.	16ee\JJ	.	.
!	!	!	!	!LO:SIC:s=(16gg\LL:v	!	!
.	.	8b-/	.	16gg\LL	.	.
.	.	.	.	16ff\	.	.
.	.	8f/	.	16ee\	.	.
!	!	!	!	!LO:SIC:s=16dd\JJ):v	!	!
.	.	.	.	16dd\JJ	.	.
!	!	!	!	!LO:SIC:s=(16cc\LL:v	!	!
.	.	8a/	.	16cc\LL)	.	.
!	!	!	!	!LO:SIC:s=16dd\:v	!	!
.	.	.	.	(16dd\	.	.
.	.	8f/J	.	16ee\	.	.
.	.	.	.	16ff\JJ)	.	.
!	!	!LO:LB:g=original	!	!	!	!
=153	=153	=153	=153	=153	=153	=153
*	*	*xywh-#53:384,3651,3446,394	*	*	*	*
8BB-/L	.	8f/	.	(16dd\LL	.	.
.	.	.	.	16een\	.	.
8B-\	.	4f/	.	16ff\	.	.
.	.	.	.	16dd\JJ)	.	.
8A\	.	.	.	(16cc\LL	.	.
.	.	.	.	16ee\	.	.
8F\	.	8a/	.	16ff\	.	.
!	!	!	!	!LO:SIC:s=16cc\JJ):v	!	!
.	.	.	.	16cc\JJ	.	.
!	!	!	!	!LO:SIC:s=(16b-\LL:v	!	!
8G\	.	8en/L	.	16b-\LL	.	.
.	.	.	.	16ee\	.	.
8En\J	.	8c/J	.	16gg\	.	.
.	.	.	.	16b-\JJ)	.	.
=154	=154	=154	=154	=154	=154	=154
8F/L	.	8c/L	.	(16a/LL	.	.
.	.	.	.	16cc/	.	.
8BB-/	.	(16d/L	.	16b-/	.	.
.	.	16B-y/JJ)	.	16g/JJ)	.	.
8C/	.	(4B-/	.	(4g/	.	.
8CC/J	.	.	.	.	.	.
4FF/	.	4A/)	.	4f/)	.	.
=155	=155	=155	=155	=155	=155	=155
!	!	!	!	!	!	!LO:MO:mod=!null:null
!	!	!	!	!	!	!LO:DY:t=rinf
8FF/L	.	8c/L	.	16ff`\LL	.	rfz
.	.	.	.	16ee-X`\JJ	.	.
8F\	.	8A/	.	4cc\	.	.
8F\	.	8f/	.	.	.	.
8F\	.	8A/	.	16dd`\LL	.	.
.	.	.	.	16ee-`\JJ	.	.
8F\	.	8f/	.	16dd`\LL	.	.
.	.	.	.	16ff`\J	.	.
8F\J	.	8d/J	.	8bb-\J	.	.
=156	=156	=156	=156	=156	=156	=156
*tremolo	*	*	*	*	*	*
8F\L	.	8f/L	.	16aa\LL	.	.
.	.	.	.	16ccc\JJ	.	.
8F\	.	8cc/	.	8.eee-\J	.	.
8F\	.	8f/	.	.	.	.
.	.	.	.	16ccc\LL	.	.
8F\	.	8ee-y/	.	16aa\	.	.
.	.	.	.	16ccc\JJ	.	.
8F\	.	8f/	.	(16bb-\LL	.	.
.	.	.	.	16ddd\J)	.	.
8F\J	.	8dd/J	.	8ff`\J	.	.
!	!	!	!	!LO:LB:g=original	!	!
*Xtremolo	*	*	*	*	*	*
=157	=157	=157	=157	=157	=157	=157
*	*	*	*	*xywh-#25:484,3763,3379,339	*	*
8E-\L	.	8b-y\	.	(16gg\LL	.	.
.	.	.	.	16aa\)	.	.
8B-\	.	4g/	.	16bb-`\	.	.
.	.	.	.	16aa`\JJ	.	.
8E-\	.	.	.	(16ccc\LL	.	.
.	.	.	.	16bb-\)	.	.
8B-\	.	8e-y/	.	16aa`\	.	.
.	.	.	.	16gg`\JJ	.	.
8D\	.	8f/L	.	(16ff\LL	.	.
.	.	.	.	16ddd\)	.	.
8B-\J	.	8d/J	.	16bb-`\	.	.
.	.	.	.	16ff`\JJ	.	.
=158	=158	=158	=158	=158	=158	=158
8C\L	.	8A/	.	16ee-\LL	.	.
.	.	.	.	16ccc\	.	.
8F\	.	4c/	.	16aa\	.	.
.	.	.	.	16ccc\JJ	.	.
8G\	.	.	.	16eee-\LL	.	.
.	.	.	.	16ccc\	.	.
8A\	.	8f/	.	16aa\	.	.
.	.	.	.	16ee-\JJ	.	.
8B-\	.	4f/	.	16dd\LL	.	.
.	.	.	.	16bb-\	.	.
8BB-/J	.	.	.	16ff\	.	.
.	.	.	.	16dd\JJ	.	.
=159	=159	=159	=159	=159	=159	=159
4E-\	p	4g/	p	(16cc\LL	.	.
.	.	.	.	16bn\)	.	.
.	.	.	.	(16dd\	.	.
.	.	.	.	16cc\JJ)	.	.
4E-\	.	4g/	.	(16ee-\LL	.	.
.	.	.	.	16dd\)	.	.
.	.	.	.	(16ff\	.	.
.	.	.	.	16ee-\JJ)	.	.
4E-\	.	4g/	.	(16gg\LL	.	.
.	.	.	.	16ff#X\)	.	.
.	.	.	.	(16aa\	.	.
.	.	.	.	16gg\JJ)	.	.
=160	=160	=160	=160	=160	=160	=160
(8E-\L	.	4g/	.	(16ffn\LL	.	.
.	.	.	.	16ee-\)	.	.
8En\J)	.	.	.	(16dd\	.	.
.	.	.	.	16cc\JJ)	.	.
4F\	.	4c/	.	(16b-\LL	.	.
.	.	.	.	16a\	.	.
.	.	.	.	16ee-\	.	.
.	.	.	.	16cc\JJ	.	.
4r	.	4r	.	16a/LL	.	.
.	.	.	.	16f/	.	.
.	.	.	.	16g/	.	.
.	.	.	.	16a/JJ)	.	.
!LO:LB:g=original	!	!	!	!	!	!
=161	=161	=161	=161	=161	=161	=161
*xywh-#71:396,4372,3470,306	*	*	*	*	*	*
8BB-'/L	p	8d'/L	p	4.b-\	.	p
8D'/	.	8f'/	.	.	.	.
8BB-'/	.	8d'/	.	.	.	.
8D'/	.	8f'/	.	(16een\LL	.	.
.	.	.	.	16ff\JJ	.	.
8BB-'/	.	8d'/	.	16ee\LL	.	.
.	.	.	.	16ff\	.	.
8D'/J	.	8B-y'/J	.	16gg\	.	.
.	.	.	.	16ff\JJ)	.	.
!	!	!LO:LB:g=original	!	!LO:LB:g=original	!	!
=162	=162	=162	=162	=162	=162	=162
*	*	*xywh-#53:384,4019,3393,334	*	*xywh-#25:473,4012,3464,378	*	*
8FF/L	.	8A/L	.	(8ff\L	.	.
8F\	.	8c/	.	8ee-X\J)	.	.
!LO:SIC:s=8E-\:v	!	!	!	!	!	!
8En\	.	8A/	.	2cc\	.	.
8F\	.	8f/	.	.	.	.
8FF/	.	8e-y/	.	.	.	.
8F\J	.	8f/J	.	.	.	.
=163	=163	=163	=163	=163	=163	=163
8BB-/	.	8d/L	.	16dd\LL	.	.
.	.	.	.	16b-\J	.	.
8r	.	8B-y/	.	8ff\J	.	.
8B-\	.	8d/	.	16bb-\LL	.	.
.	.	.	.	16ff\J	.	.
8r	.	8f/	.	8dd\J	.	.
8BB-/	.	8d/	.	16b-\LL	.	.
.	.	.	.	16dd\J	.	.
8r	.	8B-/J	.	8ff\J	.	.
=164	=164	=164	=164	=164	=164	=164
4FF/	.	8A/L	.	8cc\L	.	.
!	!	!	!	!LO:SIC:s=(16cc\L:v	!	!
.	.	(16A/L	.	16cc\L	.	.
!	!	!	!	!LO:SIC:s=16dd\JJ):v	!	!
.	.	16B-y/JJ)	.	16dd\JJ	.	.
!	!	!	!	!LO:SIC:s=(16cc/LL:v	!	!
4F\	.	(16A/LL	.	16cc/LL	.	.
.	.	16d/	.	16b-/	.	.
.	.	16c/	.	16a/	.	.
!	!	!	!	!LO:SIC:s=16g/JJ):v	!	!
.	.	16B-y/JJ)	.	16g/JJ	.	.
16F\LL	.	16A/LL	.	4f/	.	.
16E-\	.	16g/	.	.	.	.
16D\	.	16f/	.	.	.	.
16C\JJ	.	16e-y/JJ	.	.	.	.
=165	=165	=165	=165	=165	=165	=165
!	!LO:DY:b:t=F	!	!LO:DY:b:t=F	!	!	!LO:DY:b:t=F
8BB-/L	f	(16d/LL	f	4.b-\	.	f
.	.	16f/)	.	.	.	.
8B-\J	.	16b-y'/	.	.	.	.
.	.	16f'/JJ	.	.	.	.
*tremolo	*	*	*	*	*	*
8B-\L	.	16d/LL	.	.	.	.
.	.	16f/	.	.	.	.
8B-\	.	16d/	.	(16gg\LL	.	.
.	.	16f/JJ	.	16ff\JJ	.	.
8B-\	.	16d/LL	.	16een\LL	.	.
.	.	16f/	.	16ff\	.	.
8B-\J	.	16d/	.	16gg\	.	.
.	.	16f/JJ	.	16ff\JJ)	.	.
*Xtremolo	*	*	*	*	*	*
=166	=166	=166	=166	=166	=166	=166
8c\L	.	(16e-y/LL	.	(8ff\L	.	.
.	.	16f/)	.	.	.	.
8c\	.	16ay'/	.	8ee-X\J)	.	.
.	.	16f'/JJ	.	.	.	.
8A\	.	(16e-y/LL	.	2cc\	.	.
.	.	16f/)	.	.	.	.
8A\	.	(16e-y/	.	.	.	.
.	.	16f/JJ)	.	.	.	.
8F\	.	(16e-y/LL	.	.	.	.
.	.	16f/)	.	.	.	.
8F\J	.	16a'/	.	.	.	.
.	.	16f'/JJ	.	.	.	.
!	!	!LO:LB:g=original	!	!	!	!
=167	=167	=167	=167	=167	=167	=167
!LO:TX:t=P:problem:mixed beam	!	!	!	!	!	!
*	*	*xywh-#53:397,4320,3466,374	*	*	*	*
8B-\L	.	8f/	.	(16dd\LL	.	.
.	.	.	.	16ee-\	.	.
8BB-/	.	4d/	.	16ff\	.	.
.	.	.	.	16gg\JJ	.	.
8D/	.	.	.	16ff\LL	.	.
.	.	.	.	16gg\	.	.
8BB-/	.	8f/	.	16aa\	.	.
.	.	.	.	16bb-\JJ	.	.
8E-/	.	8g/L	.	16cc\LL	.	.
.	.	.	.	16dd\	.	.
8C/J	.	8e-y/J	.	16ee-\	.	.
.	.	.	.	16ff\JJ)	.	.
=168	=168	=168	=168	=168	=168	=168
!	!	!LO:TX:t=P:problem:X zapisany ołówkiem	!	!	!	!
!	!	!LO:MO:mod=!null:null	!	!	!	!
!	!	!LO:TX:t=X:color=grey	!	!	!	!
8F\L	.	8c/L	.	(16ee-\LL	.	.
.	.	.	.	16dd\	.	.
8FF/J	.	8e-y/J	.	16ee-\)	.	.
.	.	.	.	16cc`\JJ	.	.
8r	.	16e-/LL	.	(4cc\	.	.
.	.	16d/	.	.	.	.
8FF/	.	16f/	.	.	.	.
.	.	16e-/JJ	.	.	.	.
4BB-/	.	4d/	.	4b-\)	.	.
!	!	!	!	!LO:LB:g=original	!	!
=169	=169	=169	=169	=169	=169	=169
!	!	!	!	!LO:MO:mod=!LO&colon;TX&colon;b&colon;i&colon;t=sotto voce	!	!
!	!	!	!	!LO:TX:b:i:t=SettoVoce	!	!
*	*	*	*	*xywh-#25:468,4328,3441,327	*	*
8FF/L	p	2.f 2.A/	p	16aLL 16f/	.	.
.	.	.	.	16b- 16g/	.	.
8F\	.	.	.	16cc 16a/	.	.
.	.	.	.	16b-JJ 16g/	.	.
8F\	.	.	.	16aLL 16f/	.	.
.	.	.	.	16b- 16g/	.	.
8F\	.	.	.	16cc 16a/	.	.
.	.	.	.	16ddJJ 16b-/	.	.
8F\	.	.	.	16ee-LL 16cc\	.	.
.	.	.	.	16dd 16b-\	.	.
8F\J	.	.	.	16ee- 16cc\	.	.
.	.	.	.	16ccJJ 16a\	.	.
=170	=170	=170	=170	=170	=170	=170
4BB-/	.	8f 8B-y/	.	16ddLL 16b-\	.	.
.	.	.	.	16ee- 16cc\	.	.
.	.	8r	.	16ff 16dd\	.	.
.	.	.	.	16ggJJ 16ee-\	.	.
8B-\L	.	8f/L	.	8ffL 8dd\	.	.
8F\	.	8f/J	.	16ffL 16dd\	.	.
.	.	.	.	16bb-JJ 16dd\	.	.
8D\	.	4f/	.	4ff 4dd\	.	.
8BB-\J	.	.	.	.	.	.
=171	=171	=171	=171	=171	=171	=171
8FF/L	.	2.f 2.A/	.	16aLL 16f/	.	.
.	.	.	.	16b- 16g/	.	.
8F\	.	.	.	16cc 16a/	.	.
.	.	.	.	16b-JJ 16g/	.	.
8F\	.	.	.	16aLL 16f\	.	.
.	.	.	.	16b- 16g\	.	.
8F\	.	.	.	16cc 16a\	.	.
.	.	.	.	16ddJJ 16b-\	.	.
8F\	.	.	.	16ee-LL 16cc\	.	.
.	.	.	.	16dd 16b-\	.	.
8F\J	.	.	.	16ee- 16cc\	.	.
.	.	.	.	16ccJJ 16a\	.	.
!LO:LB:g=original	!	!	!	!	!	!
=172	=172	=172	=172	=172	=172	=172
*xywh-#71:424,4627,3442,454	*	*	*	*	*	*
4BB-/	.	8f 8B-y/	.	16ddLL 16b-\	.	.
.	.	.	.	16ee- 16cc\	.	.
.	.	8r	.	16ff 16dd\	.	.
.	.	.	.	16ggJJ 16ee-\	.	.
8B-\L	.	8f/L	.	8ffL 8dd\	.	.
8F\	.	8f/J	.	16ffL 16dd\	.	.
.	.	.	.	16bb-JJ 16dd\	.	.
8D\	.	4f/	.	4ff 4dd\	.	.
8BB-\J	.	.	.	.	.	.
=173	=173	=173	=173	=173	=173	=173
!	!LO:DY:b:t=F	!	!LO:DY:b:t=F	!	!	!
(16E-\LL	f	4g/	f	8gg 8ee-\	.	.
16F\)	.	.	.	.	.	.
16G'\	.	.	.	4eee- 4gg\	.	.
16F'\JJ	.	.	.	.	.	.
(16E-\LL	.	(16e-y/LL	.	.	.	.
16F\)	.	16f/)	.	.	.	.
16E-'\	.	16g'/	.	4ccc 4ee-\	.	.
16D'\JJ	.	16f'/JJ	.	.	.	.
(16C/LL	.	(16e-/LL	.	.	.	.
16BB-/)	.	16d/)	.	.	.	.
16AA'/	.	16c'/	.	8aa 8ee-\	.	.
16FF'/JJ	.	16a'/JJ	.	.	.	.
!	!	!	!	!LO:LB:g=original	!	!
=174	=174	=174	=174	=174	=174	=174
*	*	*	*	*xywh-#25:484,4554,3396,491	*	*
4BB-/	.	16b-y/LL	.	(16dd\LL	.	.
.	.	16f/	.	16bb-\)	.	.
.	.	16d/	.	(16ff\	.	.
.	.	16f/JJ	.	16ddd\JJ)	.	.
8B-\	.	8d/	.	(16dd\LL	.	.
.	.	.	.	16fff\JJ)	.	.
8r;	.	8r;	.	8r;	.	.
4r	.	4r	.	4r	.	.
!	!	!LO:LB:g=original	!	!	!	!
=175	=175	=175	=175	=175	=175	=175
.	.	.	.	8qqff#X/	.	pp
*	*	*xywh-#53:397,4615,3500,468	*	*	*	*
8r	.	8r	.	8gg\L	.	.
8E-\	pp	16g/LL	pp	16dd\L	.	.
.	.	16e-y/JJ	.	16cc\JJ	.	.
8F\L	.	8d/L	.	4b-\	.	.
8F\	.	8d/	.	.	.	.
8FF/	.	8c/	.	4a\	.	.
8FF/J	.	8e-/J	.	.	.	.
=176	=176	=176	=176	=176	=176	=176
!LO:TX:t=P:problem:mixed beam	!LO:DY:b:t=F	!	!LO:DY:b:t=F	!	!	!
8BB-/L	f	8d/L	f	4b-\	.	.
16B-\L	.	16b-y/L	.	.	.	.
16A\JJ	.	16cc/JJ	.	.	.	.
*tremolo	*	*	*	*	*	*
8B-\L	.	8dd\L	.	4r	.	.
8B-\	.	16dd\L	.	.	.	.
.	.	16ee-y\JJ	.	.	.	.
8B-\	.	8ffL 8dd\	.	4r	.	.
8B-\J	.	8ffJ 8dd\	.	.	.	.
=177	=177	=177	=177	=177	=177	=177
*	*	*^	*	*	*	*
!	!	!	!	!	!	!	!LO:DY:b:t=F
8FF/L	.	2.ff/	2.ee-y\	.	8ff\L	.	f
8F\J	.	.	.	.	16eee-\L	.	.
.	.	.	.	.	16ddd\JJ	.	.
8F\L	.	.	.	.	16ccc\LL	.	.
.	.	.	.	.	16bb-\	.	.
8F\	.	.	.	.	16aa\	.	.
.	.	.	.	.	16gg\JJ	.	.
8F\	.	.	.	.	16ff\LL	.	.
.	.	.	.	.	16ee-\	.	.
8F\J	.	.	.	.	16dd\	.	.
.	.	.	.	.	16cc\JJ	.	.
*	*	*v	*v	*	*	*	*
=178	=178	=178	=178	=178	=178	=178
!LO:TX:t=P:problem:mixed beam	!	!	!	!	!	!
8BB-/L	.	8ffL 8dd\	.	4b-\	.	.
16B-\L	.	16b-y\L	.	.	.	.
16A\JJ	.	16cc\JJ	.	.	.	.
8B-\L	.	8dd\L	.	4r	.	.
8B-\	.	16dd\L	.	.	.	.
.	.	16ee-y\JJ	.	.	.	.
8B-\	.	8ffL 8dd\	.	4r	.	.
8B-\J	.	8ffJ 8dd\	.	.	.	.
=179	=179	=179	=179	=179	=179	=179
*	*	*^	*	*	*	*
!	!	!	!	!	!	!	!LO:DY:b:t=F
8FF/L	.	2.ff/	2.ee-y\	.	8ff\L	.	f
8F\J	.	.	.	.	16eee-\L	.	.
.	.	.	.	.	16ddd\JJ	.	.
8F\L	.	.	.	.	16ccc\LL	.	.
.	.	.	.	.	16bb-\	.	.
8F\	.	.	.	.	16aa\	.	.
.	.	.	.	.	16gg\JJ	.	.
8F\	.	.	.	.	16ff\LL	.	.
.	.	.	.	.	16ee-\	.	.
8F\J	.	.	.	.	16dd\	.	.
.	.	.	.	.	16cc\JJ	.	.
*	*	*v	*v	*	*	*	*
=180	=180	=180	=180	=180	=180	=180
!LO:TX:t=P:problem:mixed beam	!LO:DY:b:t=F	!	!LO:DY:b:t=F	!	!	!
8BB-/L	f	4ff 4dd\	f	4b-\	.	.
16d\L	.	.	.	.	.	.
16B-\JJ	.	.	.	.	.	.
8F\L	.	8dd\L	.	4bb- 4b- 4d\	.	.
16B-\L	.	16dd\L	.	.	.	.
16F\JJ	.	16b-y\JJ	.	.	.	.
8D\L	.	8f/L	.	4bb- 4b- 4d\	.	.
16F\L	.	16b-/L	.	.	.	.
16D\JJ	.	16f/JJ	.	.	.	.
=181	=181	=181	=181	=181	=181	=181
4BB-/	.	4d/	.	4bb- 4b- 4d\	.	.
4r	.	4r	.	4r	.	.
4r	.	4r	.	4r	.	.
==	==	==	==	==	==	==
*-	*-	*-	*-	*-	*-	*-
!!!system-decoration: [(s1,s2,s3)]
!!!RDF**kern: > = above
!!!RDF**kern: < = below
!!!filter-modern: sic -sq | shed -e "s/LO:DY:(a|b|rj)/LO:dy:$1/L" | shed -e "s/TX(.*):t=P:/tx$1:t=P:/LG" | modori -m | autostem -r | shed -e "s/yy//" | shed -k -e "s/\(y([^y])/($1/" | shed -e "s/^(\d+[\/\\]right)/$1yy/I; s/^(\d+[\/\\]left)/$1yy/I" | shed -k -e "s/[<>]//g" | shed -k -e "s/:TUP:/:tup:/L" | shed -k -e "s/r[a-gA-G]+/r/D"
!!!ENC: Marta Opryszak
!!!END: 2022-05-27
!!!EED: Jan Barakat
!!!EEV: 2022-07-02
!!!EED-modern: Antoni Szymański
!!!END-modern: 2022-08-15
!!!ENC-iiif: Konrad Tyszka
!!!END-iiif: 2022-09-04
